;FLAVOR:Marlin
;TIME:2964
;Filament used: 1.49892m
;Layer height: 0.2
;MINX:84.7
;MINY:80.6
;MINZ:0.2
;MAXX:150.3
;MAXY:146.2
;MAXZ:8.2
;Generated with Cura_SteamEngine 4.8.0
M140 S50
M105
M190 S50
M104 S200
M105
M109 S200
M82 ;absolute extrusion mode
; Ender 3 Custom Start G-code
G92 E0 ; Reset Extruder
G28 ; Home all axes
G1 Z2.0 F3000 ; Move Z Axis up little to prevent scratching of Heat Bed
G1 X0.1 Y20 Z0.3 F5000.0 ; Move to start position
G1 X0.1 Y200.0 Z0.3 F1500.0 E15 ; Draw the first line
G1 X0.4 Y200.0 Z0.3 F5000.0 ; Move to side a little
G1 X0.4 Y20 Z0.3 F1500.0 E30 ; Draw the second line
G92 E0 ; Reset Extruder
G1 Z2.0 F3000 ; Move Z Axis up little to prevent scratching of Heat Bed
G1 X5 Y20 Z0.3 F5000.0 ; Move over to prevent blob squish
G92 E0
G92 E0
G1 F2700 E-5
;LAYER_COUNT:41
;LAYER:0
M107
G0 F6000 X87.688 Y102.355 Z0.2
;TYPE:SKIRT
G1 F2700 E0
G1 F1200 X88.324 Y101.888 E0.02624
G1 X89.004 Y101.487 E0.0525
G1 X89.722 Y101.157 E0.07878
G1 X89.962 Y101.075 E0.08722
G1 X90.204 Y100.856 E0.09807
G1 X90.84 Y100.389 E0.12432
G1 X91.52 Y99.988 E0.15057
G1 X92.238 Y99.658 E0.17686
G1 X92.985 Y99.403 E0.20311
G1 X93.754 Y99.224 E0.22937
G1 X94.538 Y99.124 E0.25566
G1 X95.131 Y99.101 E0.2754
G1 X99.881 Y99.1 E0.43338
G1 X100.67 Y99.14 E0.45966
G1 X101.451 Y99.259 E0.48593
G1 X102.215 Y99.457 E0.51218
G1 X102.956 Y99.731 E0.53846
G1 X103.665 Y100.078 E0.56471
G1 X104.335 Y100.496 E0.59098
G1 X104.47 Y100.6 E0.59665
G1 X104.7 Y100.6 E0.6043
G1 X104.7 Y100.347 E0.61271
G1 X104.489 Y100.06 E0.62456
G1 X104.088 Y99.38 E0.65082
G1 X103.758 Y98.662 E0.6771
G1 X103.503 Y97.915 E0.70335
G1 X103.324 Y97.146 E0.72961
G1 X103.224 Y96.362 E0.7559
G1 X103.201 Y95.769 E0.77564
G1 X103.2 Y91.019 E0.93362
G1 X103.24 Y90.23 E0.9599
G1 X103.359 Y89.449 E0.98618
G1 X103.557 Y88.685 E1.01243
G1 X103.831 Y87.944 E1.0387
G1 X104.178 Y87.235 E1.06496
G1 X104.596 Y86.565 E1.09122
G1 X105.079 Y85.94 E1.11749
G1 X105.192 Y85.818 E1.12302
G1 X105.331 Y85.443 E1.13633
G1 X105.679 Y84.734 E1.1626
G1 X106.097 Y84.063 E1.18889
G1 X106.58 Y83.439 E1.21513
G1 X106.985 Y83.002 E1.23495
G1 X107.102 Y82.885 E1.24045
G1 X107.688 Y82.355 E1.26673
G1 X108.324 Y81.888 E1.29298
G1 X109.004 Y81.487 E1.31923
G1 X109.722 Y81.157 E1.34552
G1 X110.469 Y80.902 E1.37177
G1 X111.238 Y80.723 E1.39803
G1 X112.022 Y80.623 E1.42432
G1 X112.617 Y80.6 E1.44412
G1 X122.383 Y80.6 E1.76894
G1 X123.172 Y80.64 E1.79522
G1 X123.952 Y80.759 E1.82146
G1 X124.717 Y80.957 E1.84774
G1 X125.457 Y81.231 E1.87399
G1 X126.166 Y81.579 E1.90026
G1 X126.837 Y81.997 E1.92655
G1 X127.461 Y82.48 E1.9528
G1 X127.898 Y82.885 E1.97261
G1 X128.015 Y83.002 E1.97812
G1 X128.545 Y83.588 E2.0044
G1 X129.012 Y84.224 E2.03064
G1 X129.413 Y84.904 E2.0569
G1 X129.743 Y85.622 E2.08318
G1 X129.825 Y85.862 E2.09161
G1 X130.044 Y86.104 E2.10247
G1 X130.511 Y86.74 E2.12871
G1 X130.912 Y87.42 E2.15497
G1 X131.242 Y88.138 E2.18125
G1 X131.497 Y88.885 E2.2075
G1 X131.676 Y89.654 E2.23377
G1 X131.776 Y90.438 E2.26005
G1 X131.799 Y91.031 E2.27979
G1 X131.8 Y95.781 E2.43778
G1 X131.762 Y96.522 E2.46245
G1 X132.196 Y96.345 E2.47804
G1 X132.754 Y96.173 E2.49746
G1 X133.598 Y95.946 E2.52653
G1 X134.37 Y95.779 E2.5528
G1 X134.927 Y95.709 E2.57148
G1 X135.797 Y95.631 E2.60053
G1 X136.494 Y95.6 E2.62373
G1 X137.506 Y95.6 E2.65739
G1 X138.203 Y95.631 E2.6806
G1 X139.073 Y95.709 E2.70965
G1 X139.854 Y95.819 E2.73588
G1 X140.402 Y95.946 E2.75459
G1 X141.246 Y96.173 E2.78366
G1 X141.997 Y96.416 E2.80992
G1 X142.535 Y96.644 E2.82935
G1 X143.321 Y97.013 E2.85823
G1 X144.018 Y97.385 E2.88451
G1 X144.48 Y97.685 E2.90283
G1 X145.184 Y98.178 E2.93141
G1 X145.807 Y98.663 E2.95767
G1 X146.212 Y99.038 E2.97603
G1 X146.822 Y99.645 E3.00465
G1 X147.353 Y100.23 E3.03093
G1 X147.702 Y100.689 E3.05011
G1 X148.208 Y101.409 E3.07938
G1 X148.628 Y102.077 E3.10562
G1 X148.887 Y102.58 E3.12444
G1 X149.255 Y103.364 E3.15325
G1 X149.554 Y104.095 E3.17952
G1 X149.725 Y104.648 E3.19877
G1 X149.953 Y105.494 E3.22791
G1 X150.106 Y106.185 E3.25145
G1 X150.194 Y106.851 E3.27379
G1 X150.269 Y107.696 E3.30201
G1 X150.3 Y108.386 E3.32498
G1 X150.3 Y118.412 E3.65845
G1 X150.268 Y119.113 E3.68179
G1 X150.19 Y119.977 E3.71064
G1 X150.08 Y120.759 E3.73691
G1 X149.954 Y121.304 E3.75551
G1 X149.727 Y122.147 E3.78455
G1 X149.483 Y122.898 E3.81081
G1 X149.257 Y123.43 E3.83004
G1 X148.888 Y124.217 E3.85895
G1 X148.517 Y124.914 E3.88521
G1 X148.215 Y125.38 E3.90368
G1 X147.722 Y126.084 E3.93226
G1 X147.237 Y126.707 E3.95852
G1 X146.862 Y127.112 E3.97688
G1 X146.255 Y127.722 E4.0055
G1 X145.67 Y128.253 E4.03178
G1 X145.211 Y128.602 E4.05096
G1 X144.491 Y129.108 E4.08023
G1 X143.823 Y129.528 E4.10647
G1 X143.321 Y129.787 E4.12526
G1 X142.535 Y130.156 E4.15414
G1 X141.804 Y130.455 E4.18041
G1 X141.246 Y130.627 E4.19983
G1 X140.402 Y130.854 E4.2289
G1 X139.63 Y131.021 E4.25517
G1 X139.073 Y131.091 E4.27384
G1 X138.203 Y131.169 E4.30289
G1 X137.506 Y131.2 E4.3261
G1 X136.494 Y131.2 E4.35976
G1 X135.797 Y131.169 E4.38296
G1 X135.218 Y131.117 E4.4023
G1 X135.269 Y131.696 E4.42163
G1 X135.3 Y132.386 E4.4446
G1 X135.3 Y133.412 E4.47873
G1 X135.268 Y134.113 E4.50207
G1 X135.19 Y134.977 E4.53092
G1 X135.08 Y135.759 E4.55719
G1 X134.954 Y136.304 E4.57579
G1 X134.727 Y137.147 E4.60483
G1 X134.483 Y137.898 E4.63109
G1 X134.257 Y138.43 E4.65032
G1 X133.888 Y139.217 E4.67923
G1 X133.517 Y139.914 E4.70549
G1 X133.215 Y140.38 E4.72396
G1 X132.722 Y141.084 E4.75254
G1 X132.237 Y141.707 E4.7788
G1 X131.862 Y142.112 E4.79716
G1 X131.255 Y142.722 E4.82578
G1 X130.67 Y143.253 E4.85206
G1 X130.211 Y143.602 E4.87124
G1 X129.491 Y144.108 E4.90051
G1 X128.823 Y144.528 E4.92675
G1 X128.321 Y144.787 E4.94554
G1 X127.535 Y145.156 E4.97442
G1 X126.804 Y145.455 E5.00069
G1 X126.246 Y145.627 E5.02011
G1 X125.402 Y145.854 E5.04918
G1 X124.63 Y146.021 E5.07545
G1 X124.073 Y146.091 E5.09412
G1 X123.203 Y146.169 E5.12317
G1 X122.506 Y146.2 E5.14638
G1 X112.492 Y146.2 E5.47945
G1 X111.874 Y146.176 E5.50002
G1 X111.106 Y146.115 E5.52564
G1 X110.323 Y146.012 E5.55191
G1 X109.915 Y145.926 E5.56578
G1 X109.156 Y145.745 E5.59173
G1 X108.398 Y145.523 E5.618
G1 X108 Y145.372 E5.63216
G1 X107.275 Y145.074 E5.65823
G1 X106.56 Y144.738 E5.6845
G1 X106.155 Y144.505 E5.70004
G1 X105.467 Y144.082 E5.72691
G1 X104.816 Y143.634 E5.75319
G1 X104.482 Y143.365 E5.76745
G1 X103.888 Y142.857 E5.79345
G1 X103.315 Y142.314 E5.81971
G1 X103.021 Y141.988 E5.83431
G1 X102.525 Y141.406 E5.85974
G1 X102.044 Y140.78 E5.886
G1 X101.822 Y140.439 E5.89953
G1 X101.406 Y139.764 E5.9259
G1 X101.026 Y139.072 E5.95216
G1 X100.84 Y138.658 E5.96726
G1 X100.54 Y137.934 E5.99332
G1 X100.275 Y137.19 E6.01959
G1 X100.161 Y136.766 E6.03419
G1 X99.976 Y135.994 E6.0606
G1 X99.831 Y135.217 E6.08689
G1 X99.786 Y134.798 E6.1009
G1 X99.725 Y134.035 E6.12636
G1 X99.7 Y133.413 E6.14707
G1 X99.7 Y132.388 E6.18116
G1 X99.732 Y131.687 E6.2045
G1 X99.81 Y130.823 E6.23335
G1 X99.92 Y130.041 E6.25962
G1 X100.046 Y129.496 E6.27822
G1 X100.273 Y128.653 E6.30726
G1 X100.517 Y127.902 E6.33352
G1 X100.622 Y127.656 E6.34242
G1 X100.462 Y127.676 E6.34778
G1 X99.869 Y127.699 E6.36752
G1 X95.119 Y127.7 E6.52551
G1 X94.33 Y127.66 E6.55178
G1 X93.549 Y127.541 E6.57806
G1 X92.785 Y127.343 E6.60431
G1 X92.044 Y127.069 E6.63058
G1 X91.335 Y126.722 E6.65684
G1 X90.665 Y126.304 E6.6831
G1 X90.04 Y125.821 E6.70938
G1 X89.918 Y125.708 E6.71491
G1 X89.543 Y125.569 E6.72821
G1 X88.834 Y125.221 E6.75448
G1 X88.163 Y124.803 E6.78077
G1 X87.539 Y124.32 E6.80702
G1 X87.102 Y123.915 E6.82683
G1 X86.985 Y123.798 E6.83234
G1 X86.455 Y123.212 E6.85862
G1 X85.988 Y122.576 E6.88486
G1 X85.587 Y121.896 E6.91112
G1 X85.257 Y121.178 E6.9374
G1 X85.002 Y120.431 E6.96365
G1 X84.823 Y119.662 E6.98991
G1 X84.723 Y118.878 E7.0162
G1 X84.7 Y118.283 E7.036
G1 X84.7 Y108.517 E7.36082
G1 X84.74 Y107.728 E7.3871
G1 X84.859 Y106.948 E7.41334
G1 X85.057 Y106.183 E7.43962
G1 X85.331 Y105.443 E7.46587
G1 X85.679 Y104.734 E7.49214
G1 X86.097 Y104.063 E7.51843
G1 X86.58 Y103.439 E7.54468
G1 X86.985 Y103.002 E7.56449
G1 X87.102 Y102.885 E7.57
G1 X87.688 Y102.355 E7.59628
G0 F6000 X87.956 Y102.653
G1 F1200 X88.578 Y102.2 E7.62187
G1 X89.243 Y101.814 E7.64744
G1 X89.945 Y101.499 E7.67304
G1 X90.17 Y101.425 E7.68091
G1 X90.472 Y101.154 E7.69441
G1 X91.094 Y100.701 E7.72
G1 X91.759 Y100.315 E7.74558
G1 X92.461 Y100 E7.77117
G1 X93.192 Y99.76 E7.79676
G1 X93.943 Y99.597 E7.82232
G1 X94.708 Y99.513 E7.84791
G1 X95.131 Y99.501 E7.86199
G1 X99.881 Y99.5 E8.01997
G1 X100.65 Y99.54 E8.04559
G1 X101.409 Y99.659 E8.07114
G1 X102.153 Y99.857 E8.09675
G1 X102.872 Y100.13 E8.12233
G1 X103.558 Y100.477 E8.14789
G1 X104.205 Y100.893 E8.17348
G1 X104.338 Y101 E8.17916
G1 X105.1 Y101 E8.2045
G1 X105.1 Y100.217 E8.23054
G1 X104.801 Y99.806 E8.24745
G1 X104.415 Y99.141 E8.27302
G1 X104.1 Y98.439 E8.29861
G1 X103.86 Y97.708 E8.3242
G1 X103.697 Y96.957 E8.34976
G1 X103.613 Y96.192 E8.37536
G1 X103.601 Y95.769 E8.38943
G1 X103.6 Y91.019 E8.54742
G1 X103.64 Y90.25 E8.57303
G1 X103.759 Y89.491 E8.59858
G1 X103.957 Y88.747 E8.62419
G1 X104.23 Y88.028 E8.64977
G1 X104.577 Y87.342 E8.67534
G1 X104.993 Y86.695 E8.70092
G1 X105.474 Y86.095 E8.7265
G1 X105.542 Y86.023 E8.7298
G1 X105.731 Y85.527 E8.74745
G1 X106.078 Y84.841 E8.77302
G1 X106.494 Y84.194 E8.7986
G1 X106.975 Y83.594 E8.82418
G1 X107.267 Y83.284 E8.83834
G1 X107.384 Y83.167 E8.84385
G1 X107.956 Y82.653 E8.86942
G1 X108.578 Y82.2 E8.89502
G1 X109.243 Y81.814 E8.92059
G1 X109.945 Y81.499 E8.94618
G1 X110.676 Y81.259 E8.97177
G1 X111.427 Y81.096 E8.99733
G1 X112.192 Y81.012 E9.02293
G1 X112.617 Y81 E9.03707
G1 X122.383 Y81 E9.36189
G1 X123.151 Y81.04 E9.38747
G1 X123.911 Y81.159 E9.41305
G1 X124.654 Y81.357 E9.43863
G1 X125.373 Y81.631 E9.46422
G1 X126.059 Y81.978 E9.48979
G1 X126.706 Y82.394 E9.51537
G1 X127.306 Y82.875 E9.54095
G1 X127.616 Y83.167 E9.55511
G1 X127.733 Y83.284 E9.56062
G1 X128.247 Y83.856 E9.5862
G1 X128.7 Y84.478 E9.61179
G1 X129.086 Y85.143 E9.63736
G1 X129.401 Y85.845 E9.66295
G1 X129.475 Y86.07 E9.67083
G1 X129.746 Y86.372 E9.68433
G1 X130.199 Y86.994 E9.70992
G1 X130.585 Y87.659 E9.73549
G1 X130.9 Y88.361 E9.76109
G1 X131.14 Y89.092 E9.78668
G1 X131.303 Y89.843 E9.81224
G1 X131.387 Y90.608 E9.83783
G1 X131.399 Y91.031 E9.85191
G1 X131.4 Y95.781 E10.00989
G1 X131.36 Y96.55 E10.0355
G1 X131.261 Y97.182 E10.05678
G1 X131.635 Y97.006 E10.07053
G1 X132.348 Y96.716 E10.09613
G1 X132.858 Y96.559 E10.11388
G1 X133.702 Y96.332 E10.14295
G1 X134.454 Y96.171 E10.16853
G1 X134.963 Y96.108 E10.18558
G1 X135.833 Y96.03 E10.21464
G1 X136.494 Y96 E10.23664
G1 X137.506 Y96 E10.2703
G1 X138.167 Y96.03 E10.29231
G1 X139.037 Y96.108 E10.32136
G1 X139.798 Y96.216 E10.34693
G1 X140.298 Y96.332 E10.364
G1 X141.142 Y96.559 E10.39307
G1 X141.873 Y96.797 E10.41864
G1 X142.365 Y97.006 E10.43642
G1 X143.151 Y97.375 E10.4653
G1 X143.829 Y97.738 E10.49088
G1 X144.251 Y98.012 E10.50761
G1 X144.955 Y98.505 E10.5362
G1 X145.561 Y98.979 E10.56179
G1 X145.93 Y99.322 E10.57854
G1 X146.54 Y99.929 E10.60716
G1 X147.056 Y100.499 E10.63274
G1 X147.374 Y100.919 E10.65026
G1 X147.88 Y101.639 E10.67953
G1 X148.289 Y102.291 E10.70513
G1 X148.525 Y102.75 E10.72229
G1 X148.893 Y103.534 E10.7511
G1 X149.183 Y104.246 E10.77667
G1 X149.339 Y104.752 E10.79428
G1 X149.567 Y105.598 E10.82342
G1 X149.712 Y106.255 E10.8458
G1 X149.796 Y106.887 E10.86701
G1 X149.871 Y107.732 E10.89522
G1 X149.9 Y108.386 E10.91699
G1 X149.9 Y118.412 E11.25046
G1 X149.87 Y119.077 E11.2726
G1 X149.792 Y119.941 E11.30145
G1 X149.683 Y120.703 E11.32706
G1 X149.567 Y121.2 E11.34403
G1 X149.34 Y122.043 E11.37307
G1 X149.102 Y122.774 E11.39864
G1 X148.895 Y123.26 E11.41621
G1 X148.526 Y124.047 E11.44512
G1 X148.164 Y124.726 E11.47071
G1 X147.888 Y125.151 E11.48757
G1 X147.395 Y125.855 E11.51615
G1 X146.921 Y126.461 E11.54174
G1 X146.578 Y126.83 E11.5585
G1 X145.971 Y127.44 E11.58712
G1 X145.401 Y127.956 E11.61269
G1 X144.981 Y128.274 E11.63021
G1 X144.261 Y128.78 E11.65948
G1 X143.609 Y129.189 E11.68508
G1 X143.151 Y129.425 E11.70222
G1 X142.365 Y129.794 E11.7311
G1 X141.652 Y130.084 E11.7567
G1 X141.142 Y130.241 E11.77445
G1 X140.298 Y130.468 E11.80352
G1 X139.546 Y130.629 E11.82909
G1 X139.037 Y130.692 E11.84615
G1 X138.167 Y130.77 E11.87521
G1 X137.506 Y130.8 E11.89721
G1 X136.494 Y130.8 E11.93087
G1 X135.833 Y130.77 E11.95288
G1 X134.963 Y130.692 E11.98193
G1 X134.766 Y130.664 E11.98855
G1 X134.796 Y130.887 E11.99603
G1 X134.871 Y131.732 E12.02425
G1 X134.9 Y132.386 E12.04602
G1 X134.9 Y133.412 E12.08015
G1 X134.87 Y134.077 E12.10229
G1 X134.792 Y134.941 E12.13114
G1 X134.683 Y135.703 E12.15674
G1 X134.567 Y136.2 E12.17372
G1 X134.34 Y137.043 E12.20276
G1 X134.102 Y137.774 E12.22833
G1 X133.895 Y138.26 E12.24589
G1 X133.526 Y139.047 E12.2748
G1 X133.164 Y139.726 E12.3004
G1 X132.888 Y140.151 E12.31725
G1 X132.395 Y140.855 E12.34584
G1 X131.921 Y141.461 E12.37143
G1 X131.578 Y141.83 E12.38818
G1 X130.971 Y142.44 E12.41681
G1 X130.401 Y142.956 E12.44238
G1 X129.981 Y143.274 E12.4599
G1 X129.261 Y143.78 E12.48917
G1 X128.609 Y144.189 E12.51477
G1 X128.151 Y144.425 E12.5319
G1 X127.365 Y144.794 E12.56078
G1 X126.652 Y145.084 E12.58639
G1 X126.142 Y145.241 E12.60413
G1 X125.298 Y145.468 E12.6332
G1 X124.546 Y145.629 E12.65878
G1 X124.037 Y145.692 E12.67584
G1 X123.167 Y145.77 E12.70489
G1 X122.506 Y145.8 E12.7269
G1 X112.492 Y145.8 E13.05997
G1 X111.906 Y145.777 E13.07947
G1 X111.138 Y145.716 E13.1051
G1 X110.007 Y145.537 E13.14318
G1 X109.248 Y145.356 E13.16913
G1 X108.152 Y145.002 E13.20744
G1 X107.427 Y144.704 E13.23351
G1 X106.731 Y144.375 E13.25912
G1 X106.364 Y144.164 E13.2732
G1 X105.676 Y143.741 E13.30006
G1 X105.043 Y143.304 E13.32564
G1 X104.742 Y143.061 E13.33851
G1 X104.148 Y142.553 E13.36451
G1 X103.591 Y142.023 E13.39008
G1 X103.326 Y141.729 E13.40324
G1 X102.83 Y141.147 E13.42868
G1 X102.162 Y140.229 E13.46644
G1 X101.746 Y139.554 E13.49281
G1 X101.377 Y138.88 E13.51837
G1 X101.21 Y138.505 E13.53202
G1 X100.91 Y137.781 E13.55809
G1 X100.653 Y137.056 E13.58367
G1 X100.55 Y136.672 E13.59689
G1 X100.365 Y135.9 E13.6233
G1 X100.185 Y134.766 E13.66149
G1 X100.124 Y134.003 E13.68694
G1 X100.1 Y133.413 E13.70658
G1 X100.1 Y132.388 E13.74068
G1 X100.13 Y131.723 E13.76282
G1 X100.208 Y130.859 E13.79167
G1 X100.317 Y130.097 E13.81727
G1 X100.433 Y129.6 E13.83425
G1 X100.66 Y128.757 E13.86328
G1 X100.898 Y128.026 E13.88885
G1 X101.105 Y127.54 E13.90642
G1 X101.286 Y127.153 E13.92063
G1 X101.057 Y127.203 E13.92843
G1 X100.292 Y127.287 E13.95403
G1 X99.869 Y127.299 E13.9681
G1 X95.119 Y127.3 E14.12609
G1 X94.35 Y127.26 E14.1517
G1 X93.591 Y127.141 E14.17725
G1 X92.847 Y126.943 E14.20286
G1 X92.128 Y126.67 E14.22844
G1 X91.442 Y126.323 E14.25401
G1 X90.795 Y125.907 E14.27959
G1 X90.195 Y125.426 E14.30517
G1 X90.123 Y125.358 E14.30846
G1 X89.627 Y125.169 E14.32611
G1 X88.941 Y124.822 E14.35168
G1 X88.294 Y124.406 E14.37727
G1 X87.694 Y123.925 E14.40284
G1 X87.384 Y123.633 E14.41701
G1 X87.267 Y123.516 E14.42251
G1 X86.753 Y122.944 E14.44809
G1 X86.3 Y122.322 E14.47368
G1 X85.914 Y121.657 E14.49926
G1 X85.599 Y120.955 E14.52485
G1 X85.359 Y120.224 E14.55044
G1 X85.196 Y119.473 E14.576
G1 X85.112 Y118.708 E14.6016
G1 X85.1 Y118.283 E14.61574
G1 X85.1 Y108.517 E14.94056
G1 X85.14 Y107.749 E14.96613
G1 X85.259 Y106.989 E14.99172
G1 X85.457 Y106.246 E15.01729
G1 X85.731 Y105.527 E15.04289
G1 X86.078 Y104.841 E15.06845
G1 X86.494 Y104.194 E15.09404
G1 X86.975 Y103.594 E15.11962
G1 X87.267 Y103.284 E15.13378
G1 X87.384 Y103.167 E15.13928
G1 X87.956 Y102.653 E15.16486
G0 F6000 X88.224 Y102.95
G1 F1200 X88.83 Y102.513 E15.18971
G1 X89.48 Y102.142 E15.2146
G1 X90.166 Y101.843 E15.23949
G1 X90.377 Y101.777 E15.24685
G1 X90.74 Y101.451 E15.26307
G1 X91.346 Y101.014 E15.28792
G1 X91.996 Y100.643 E15.31282
G1 X92.682 Y100.344 E15.33771
G1 X93.396 Y100.12 E15.36259
G1 X94.129 Y99.973 E15.38746
G1 X95.132 Y99.901 E15.42091
G1 X99.882 Y99.9 E15.57889
G1 X100.629 Y99.94 E15.60377
G1 X101.367 Y100.059 E15.62863
G1 X102.089 Y100.257 E15.65354
G1 X102.785 Y100.53 E15.6784
G1 X103.448 Y100.876 E15.70328
