;FLAVOR:Marlin
;TIME:1818
;Filament used: 1.08407m
;Layer height: 0.2
;MINX:84.7
;MINY:82.45
;MINZ:0.2
;MAXX:150.3
;MAXY:148.05
;MAXZ:4.4
;Generated with Cura_SteamEngine 4.8.0
M140 S50
M105
M190 S50
M104 S200
M105
M109 S200
M82 ;absolute extrusion mode
; Ender 3 Custom Start G-code
G92 E0 ; Reset Extruder
G28 ; Home all axes
G1 Z2.0 F3000 ; Move Z Axis up little to prevent scratching of Heat Bed
G1 X0.1 Y20 Z0.3 F5000.0 ; Move to start position
G1 X0.1 Y200.0 Z0.3 F1500.0 E15 ; Draw the first line
G1 X0.4 Y200.0 Z0.3 F5000.0 ; Move to side a little
G1 X0.4 Y20 Z0.3 F1500.0 E30 ; Draw the second line
G92 E0 ; Reset Extruder
G1 Z2.0 F3000 ; Move Z Axis up little to prevent scratching of Heat Bed
G1 X5 Y20 Z0.3 F5000.0 ; Move over to prevent blob squish
G92 E0
G92 E0
G1 F2700 E-5
;LAYER_COUNT:22
;LAYER:0
M107
G0 F6000 X87.688 Y104.205 Z0.2
;TYPE:SKIRT
G1 F2700 E0
G1 F1200 X88.324 Y103.738 E0.02624
G1 X89.004 Y103.337 E0.0525
G1 X89.722 Y103.007 E0.07878
G1 X90.469 Y102.752 E0.10504
G1 X91.238 Y102.573 E0.1313
G1 X92.022 Y102.473 E0.15758
G1 X92.617 Y102.45 E0.17739
G1 X104.7 Y102.45 E0.57927
G1 X104.7 Y90.367 E0.98115
G1 X104.74 Y89.578 E1.00743
G1 X104.859 Y88.798 E1.03367
G1 X105.057 Y88.033 E1.05995
G1 X105.331 Y87.293 E1.0862
G1 X105.679 Y86.584 E1.11247
G1 X106.097 Y85.913 E1.13876
G1 X106.58 Y85.289 E1.16501
G1 X106.985 Y84.852 E1.18482
G1 X107.102 Y84.735 E1.19033
G1 X107.688 Y84.205 E1.21661
G1 X108.324 Y83.738 E1.24285
G1 X109.004 Y83.337 E1.26911
G1 X109.722 Y83.007 E1.29539
G1 X110.469 Y82.752 E1.32164
G1 X111.238 Y82.573 E1.3479
G1 X112.022 Y82.473 E1.37419
G1 X112.617 Y82.45 E1.394
G1 X122.383 Y82.45 E1.71881
G1 X123.172 Y82.49 E1.74509
G1 X123.952 Y82.609 E1.77133
G1 X124.717 Y82.807 E1.79762
G1 X125.457 Y83.081 E1.82386
G1 X126.166 Y83.429 E1.85013
G1 X126.837 Y83.847 E1.87642
G1 X127.461 Y84.33 E1.90267
G1 X127.898 Y84.735 E1.92249
G1 X128.015 Y84.852 E1.92799
G1 X128.545 Y85.438 E1.95427
G1 X129.012 Y86.074 E1.98051
G1 X129.413 Y86.754 E2.00677
G1 X129.743 Y87.472 E2.03305
G1 X129.998 Y88.219 E2.0593
G1 X130.177 Y88.988 E2.08556
G1 X130.277 Y89.772 E2.11185
G1 X130.3 Y90.367 E2.13166
G1 X130.3 Y102.45 E2.53354
G1 X142.383 Y102.45 E2.93542
G1 X143.172 Y102.49 E2.9617
G1 X143.952 Y102.609 E2.98794
G1 X144.717 Y102.807 E3.01422
G1 X145.457 Y103.081 E3.04047
G1 X146.166 Y103.429 E3.06674
G1 X146.837 Y103.847 E3.09303
G1 X147.461 Y104.33 E3.11928
G1 X147.898 Y104.735 E3.13909
G1 X148.015 Y104.852 E3.1446
G1 X148.545 Y105.438 E3.17088
G1 X149.012 Y106.074 E3.19712
G1 X149.413 Y106.754 E3.22338
G1 X149.743 Y107.472 E3.24966
G1 X149.998 Y108.219 E3.27591
G1 X150.177 Y108.988 E3.30217
G1 X150.277 Y109.772 E3.32846
G1 X150.3 Y110.367 E3.34826
G1 X150.3 Y120.133 E3.67308
G1 X150.26 Y120.922 E3.69936
G1 X150.141 Y121.702 E3.7256
G1 X149.943 Y122.467 E3.75188
G1 X149.669 Y123.207 E3.77813
G1 X149.321 Y123.916 E3.8044
G1 X148.903 Y124.587 E3.83069
G1 X148.42 Y125.211 E3.85694
G1 X148.015 Y125.648 E3.87675
G1 X147.898 Y125.765 E3.88226
G1 X147.312 Y126.295 E3.90854
G1 X146.676 Y126.762 E3.93478
G1 X145.996 Y127.163 E3.96104
G1 X145.278 Y127.493 E3.98732
G1 X144.531 Y127.748 E4.01357
G1 X143.762 Y127.927 E4.03983
G1 X142.978 Y128.027 E4.06612
G1 X142.383 Y128.05 E4.08593
G1 X130.3 Y128.05 E4.48781
G1 X130.3 Y140.133 E4.88969
G1 X130.26 Y140.922 E4.91597
G1 X130.141 Y141.702 E4.94221
G1 X129.943 Y142.467 E4.96849
G1 X129.669 Y143.207 E4.99474
G1 X129.321 Y143.916 E5.02101
G1 X128.903 Y144.587 E5.0473
G1 X128.42 Y145.211 E5.07354
G1 X128.015 Y145.648 E5.09336
G1 X127.898 Y145.765 E5.09886
G1 X127.312 Y146.295 E5.12514
G1 X126.676 Y146.762 E5.15139
G1 X125.996 Y147.163 E5.17764
G1 X125.278 Y147.493 E5.20393
G1 X124.531 Y147.748 E5.23018
G1 X123.762 Y147.927 E5.25644
G1 X122.978 Y148.027 E5.28273
G1 X122.383 Y148.05 E5.30253
G1 X112.617 Y148.05 E5.62735
G1 X111.828 Y148.01 E5.65363
G1 X111.048 Y147.891 E5.67987
G1 X110.283 Y147.693 E5.70615
G1 X109.543 Y147.419 E5.7324
G1 X108.834 Y147.071 E5.75867
G1 X108.163 Y146.653 E5.78496
G1 X107.539 Y146.17 E5.81121
G1 X107.102 Y145.765 E5.83102
G1 X106.985 Y145.648 E5.83653
G1 X106.455 Y145.062 E5.86281
G1 X105.988 Y144.426 E5.88905
G1 X105.587 Y143.746 E5.91531
G1 X105.257 Y143.028 E5.94159
G1 X105.002 Y142.281 E5.96784
G1 X104.823 Y141.512 E5.9941
G1 X104.723 Y140.728 E6.02039
G1 X104.7 Y140.133 E6.04019
G1 X104.7 Y128.05 E6.44208
G1 X92.617 Y128.05 E6.84396
G1 X91.828 Y128.01 E6.87023
G1 X91.048 Y127.891 E6.89648
G1 X90.283 Y127.693 E6.92276
G1 X89.543 Y127.419 E6.949
G1 X88.834 Y127.071 E6.97527
G1 X88.163 Y126.653 E7.00157
G1 X87.539 Y126.17 E7.02781
G1 X87.102 Y125.765 E7.04763
G1 X86.985 Y125.648 E7.05313
G1 X86.455 Y125.062 E7.07941
G1 X85.988 Y124.426 E7.10566
G1 X85.587 Y123.746 E7.13191
G1 X85.257 Y123.028 E7.1582
G1 X85.002 Y122.281 E7.18445
G1 X84.823 Y121.512 E7.21071
G1 X84.723 Y120.728 E7.237
G1 X84.7 Y120.133 E7.2568
G1 X84.7 Y110.367 E7.58162
G1 X84.74 Y109.578 E7.6079
G1 X84.859 Y108.798 E7.63414
G1 X85.057 Y108.033 E7.66042
G1 X85.331 Y107.293 E7.68667
G1 X85.679 Y106.584 E7.71294
G1 X86.097 Y105.913 E7.73923
G1 X86.58 Y105.289 E7.76547
G1 X86.985 Y104.852 E7.78529
G1 X87.102 Y104.735 E7.79079
G1 X87.688 Y104.205 E7.81707
G0 F6000 X87.956 Y104.503
G1 F1200 X88.578 Y104.05 E7.84267
G1 X89.243 Y103.664 E7.86824
G1 X89.945 Y103.349 E7.89383
G1 X90.676 Y103.109 E7.91942
G1 X91.427 Y102.946 E7.94498
G1 X92.192 Y102.862 E7.97058
G1 X92.617 Y102.85 E7.98472
G1 X105.1 Y102.85 E8.39991
G1 X105.1 Y90.367 E8.81509
G1 X105.14 Y89.599 E8.84067
G1 X105.259 Y88.839 E8.86626
G1 X105.457 Y88.096 E8.89183
G1 X105.731 Y87.377 E8.91742
G1 X106.078 Y86.691 E8.94299
G1 X106.494 Y86.044 E8.96858
G1 X106.975 Y85.444 E8.99415
G1 X107.267 Y85.134 E9.00832
G1 X107.384 Y85.017 E9.01382
G1 X107.956 Y84.503 E9.0394
G1 X108.578 Y84.05 E9.06499
G1 X109.243 Y83.664 E9.09057
G1 X109.945 Y83.349 E9.11616
G1 X110.676 Y83.109 E9.14175
G1 X111.427 Y82.946 E9.16731
G1 X112.192 Y82.862 E9.1929
G1 X112.617 Y82.85 E9.20704
G1 X122.383 Y82.85 E9.53186
G1 X123.151 Y82.89 E9.55744
G1 X123.911 Y83.009 E9.58303
G1 X124.654 Y83.207 E9.6086
G1 X125.373 Y83.481 E9.63419
G1 X126.059 Y83.828 E9.65976
G1 X126.706 Y84.244 E9.68535
G1 X127.306 Y84.725 E9.71092
G1 X127.616 Y85.017 E9.72509
G1 X127.733 Y85.134 E9.73059
G1 X128.247 Y85.706 E9.75617
G1 X128.7 Y86.328 E9.78176
G1 X129.086 Y86.993 E9.80734
G1 X129.401 Y87.695 E9.83293
G1 X129.641 Y88.426 E9.85852
G1 X129.804 Y89.177 E9.88408
G1 X129.888 Y89.942 E9.90967
G1 X129.9 Y90.367 E9.92382
G1 X129.9 Y102.85 E10.339
G1 X142.383 Y102.85 E10.75419
G1 X143.151 Y102.89 E10.77977
G1 X143.911 Y103.009 E10.80535
G1 X144.654 Y103.207 E10.83093
G1 X145.373 Y103.481 E10.85652
G1 X146.059 Y103.828 E10.88209
G1 X146.706 Y104.244 E10.90767
G1 X147.306 Y104.725 E10.93325
G1 X147.616 Y105.017 E10.94741
G1 X147.733 Y105.134 E10.95292
G1 X148.247 Y105.706 E10.97849
G1 X148.7 Y106.328 E11.00409
G1 X149.086 Y106.993 E11.02966
G1 X149.401 Y107.695 E11.05525
G1 X149.641 Y108.426 E11.08084
G1 X149.804 Y109.177 E11.1064
G1 X149.888 Y109.942 E11.132
G1 X149.9 Y110.367 E11.14614
G1 X149.9 Y120.133 E11.47096
G1 X149.86 Y120.901 E11.49654
G1 X149.741 Y121.661 E11.52212
G1 X149.543 Y122.404 E11.5477
G1 X149.269 Y123.123 E11.57329
G1 X148.922 Y123.809 E11.59886
G1 X148.506 Y124.456 E11.62444
G1 X148.025 Y125.056 E11.65002
G1 X147.733 Y125.366 E11.66418
G1 X147.616 Y125.483 E11.66969
G1 X147.044 Y125.997 E11.69526
G1 X146.422 Y126.45 E11.72086
G1 X145.757 Y126.836 E11.74643
G1 X145.055 Y127.151 E11.77202
G1 X144.324 Y127.391 E11.79761
G1 X143.573 Y127.554 E11.82317
G1 X142.808 Y127.638 E11.84877
G1 X142.383 Y127.65 E11.86291
G1 X129.9 Y127.65 E12.2781
G1 X129.9 Y140.133 E12.69328
G1 X129.86 Y140.901 E12.71886
G1 X129.741 Y141.661 E12.74445
G1 X129.543 Y142.404 E12.77002
G1 X129.269 Y143.123 E12.79561
G1 X128.922 Y143.809 E12.82118
G1 X128.506 Y144.456 E12.84677
G1 X128.025 Y145.056 E12.87234
G1 X127.733 Y145.366 E12.88651
G1 X127.616 Y145.483 E12.89201
G1 X127.044 Y145.997 E12.91759
G1 X126.422 Y146.45 E12.94318
G1 X125.757 Y146.836 E12.96876
G1 X125.055 Y147.151 E12.99435
G1 X124.324 Y147.391 E13.01994
G1 X123.573 Y147.554 E13.0455
G1 X122.808 Y147.638 E13.07109
G1 X122.383 Y147.65 E13.08524
G1 X112.617 Y147.65 E13.41005
G1 X111.849 Y147.61 E13.43563
G1 X111.089 Y147.491 E13.46122
G1 X110.346 Y147.293 E13.48679
G1 X109.627 Y147.019 E13.51238
G1 X108.941 Y146.672 E13.53795
G1 X108.294 Y146.256 E13.56354
G1 X107.694 Y145.775 E13.58911
G1 X107.384 Y145.483 E13.60328
G1 X107.267 Y145.366 E13.60878
G1 X106.753 Y144.794 E13.63436
G1 X106.3 Y144.172 E13.65995
G1 X105.914 Y143.507 E13.68553
G1 X105.599 Y142.805 E13.71112
G1 X105.359 Y142.074 E13.73671
G1 X105.196 Y141.323 E13.76227
G1 X105.112 Y140.558 E13.78786
G1 X105.1 Y140.133 E13.80201
G1 X105.1 Y127.65 E14.21719
G1 X92.617 Y127.65 E14.63238
G1 X91.849 Y127.61 E14.65796
G1 X91.089 Y127.491 E14.68354
G1 X90.346 Y127.293 E14.70912
G1 X89.627 Y127.019 E14.73471
G1 X88.941 Y126.672 E14.76028
G1 X88.294 Y126.256 E14.78586
G1 X87.694 Y125.775 E14.81144
G1 X87.384 Y125.483 E14.8256
G1 X87.267 Y125.366 E14.83111
G1 X86.753 Y124.794 E14.85668
G1 X86.3 Y124.172 E14.88228
G1 X85.914 Y123.507 E14.90785
G1 X85.599 Y122.805 E14.93344
G1 X85.359 Y122.074 E14.95903
G1 X85.196 Y121.323 E14.98459
G1 X85.112 Y120.558 E15.01019
G1 X85.1 Y120.133 E15.02433
G1 X85.1 Y110.367 E15.34915
G1 X85.14 Y109.599 E15.37473
G1 X85.259 Y108.839 E15.40031
G1 X85.457 Y108.096 E15.42589
G1 X85.731 Y107.377 E15.45148
G1 X86.078 Y106.691 E15.47705
G1 X86.494 Y106.044 E15.50263
G1 X86.975 Y105.444 E15.52821
G1 X87.267 Y105.134 E15.54237
G1 X87.384 Y105.017 E15.54788
G1 X87.956 Y104.503 E15.57345
G0 F6000 X88.224 Y104.8
G1 F1200 X88.83 Y104.363 E15.5983
G1 X89.48 Y103.992 E15.6232
G1 X90.166 Y103.693 E15.64809
G1 X90.88 Y103.469 E15.67298
G1 X91.613 Y103.322 E15.69784
G1 X92.617 Y103.25 E15.73132
G1 X105.5 Y103.25 E16.15981
G1 X105.5 Y90.367 E16.5883
G1 X105.54 Y89.62 E16.61318
G1 X105.659 Y88.882 E16.63804
G1 X105.857 Y88.16 E16.66294
G1 X106.13 Y87.464 E16.68781
G1 X106.477 Y86.801 E16.7127
G1 X106.892 Y86.178 E16.7376
G1 X107.55 Y85.417 E16.77106
G1 X107.667 Y85.3 E16.77656
G1 X108.224 Y84.8 E16.80146
G1 X108.83 Y84.363 E16.82631
G1 X109.48 Y83.992 E16.8512
G1 X110.166 Y83.693 E16.87609
G1 X110.88 Y83.469 E16.90098
G1 X111.613 Y83.322 E16.92584
G1 X112.617 Y83.25 E16.95932
G1 X122.383 Y83.25 E17.28414
G1 X123.13 Y83.29 E17.30902
G1 X123.868 Y83.409 E17.33388
G1 X124.59 Y83.607 E17.35878
G1 X125.286 Y83.88 E17.38365
G1 X125.949 Y84.227 E17.40854
G1 X126.572 Y84.642 E17.43344
G1 X127.333 Y85.3 E17.4669
G1 X127.45 Y85.417 E17.4724
G1 X127.95 Y85.974 E17.4973
G1 X128.387 Y86.58 E17.52215
G1 X128.758 Y87.23 E17.54704
G1 X129.057 Y87.916 E17.57193
G1 X129.281 Y88.63 E17.59682
G1 X129.428 Y89.363 E17.62168
G1 X129.5 Y90.367 E17.65516
G1 X129.5 Y103.25 E18.08365
G1 X142.383 Y103.25 E18.51214
G1 X143.13 Y103.29 E18.53702
G1 X143.868 Y103.409 E18.56189
G1 X144.59 Y103.607 E18.58679
G1 X145.286 Y103.88 E18.61165
G1 X145.949 Y104.227 E18.63654
G1 X146.572 Y104.642 E18.66144
G1 X147.333 Y105.3 E18.6949
G1 X147.45 Y105.417 E18.7004
G1 X147.95 Y105.974 E18.7253
G1 X148.387 Y106.58 E18.75015
G1 X148.758 Y107.23 E18.77504
G1 X149.057 Y107.916 E18.79993
G1 X149.281 Y108.63 E18.82482
G1 X149.428 Y109.363 E18.84968
G1 X149.5 Y110.367 E18.88316
G1 X149.5 Y120.133 E19.20798
G1 X149.46 Y120.88 E19.23286
G1 X149.341 Y121.618 E19.25773
G1 X149.143 Y122.34 E19.28263
G1 X148.87 Y123.036 E19.30749
G1 X148.523 Y123.699 E19.33238
G1 X148.108 Y124.322 E19.35728
G1 X147.45 Y125.083 E19.39074
G1 X147.333 Y125.2 E19.39624
G1 X146.776 Y125.7 E19.42114
G1 X146.17 Y126.137 E19.44599
G1 X145.52 Y126.508 E19.47088
G1 X144.834 Y126.807 E19.49577
G1 X144.12 Y127.031 E19.52066
G1 X143.387 Y127.178 E19.54552
G1 X142.383 Y127.25 E19.579
G1 X129.5 Y127.25 E20.00749
G1 X129.5 Y140.133 E20.43598
G1 X129.46 Y140.88 E20.46086
G1 X129.341 Y141.618 E20.48573
G1 X129.143 Y142.34 E20.51063
G1 X128.87 Y143.036 E20.53549
G1 X128.523 Y143.699 E20.56038
G1 X128.108 Y144.322 E20.58528
G1 X127.45 Y145.083 E20.61874
G1 X127.333 Y145.2 E20.62424
G1 X126.776 Y145.7 E20.64914
G1 X126.17 Y146.137 E20.67399
G1 X125.52 Y146.508 E20.69888
G1 X124.834 Y146.807 E20.72377
G1 X124.12 Y147.031 E20.74866
G1 X123.387 Y147.178 E20.77353
G1 X122.383 Y147.25 E20.807
G1 X112.617 Y147.25 E21.13182
G1 X111.87 Y147.21 E21.1567
G1 X111.132 Y147.091 E21.18157
G1 X110.41 Y146.893 E21.20647
G1 X109.714 Y146.62 E21.23133
G1 X109.051 Y146.273 E21.25622
G1 X108.428 Y145.858 E21.28112
G1 X107.667 Y145.2 E21.31458
G1 X107.55 Y145.083 E21.32008
G1 X107.05 Y144.526 E21.34498
G1 X106.613 Y143.92 E21.36983
G1 X106.242 Y143.27 E21.39472
G1 X105.943 Y142.584 E21.41961
G1 X105.719 Y141.87 E21.4445
G1 X105.572 Y141.137 E21.46936
G1 X105.5 Y140.133 E21.50284
G1 X105.5 Y127.25 E21.93133
G1 X92.617 Y127.25 E22.35982
G1 X91.87 Y127.21 E22.38471
G1 X91.132 Y127.091 E22.40957
G1 X90.41 Y126.893 E22.43447
G1 X89.714 Y126.62 E22.45933
G1 X89.051 Y126.273 E22.48422
G1 X88.428 Y125.858 E22.50912
G1 X87.667 Y125.2 E22.54258
G1 X87.55 Y125.083 E22.54809
G1 X87.05 Y124.526 E22.57298
G1 X86.613 Y123.92 E22.59783
G1 X86.242 Y123.27 E22.62272
G1 X85.943 Y122.584 E22.64761
G1 X85.719 Y121.87 E22.6725
G1 X85.572 Y121.137 E22.69737
G1 X85.5 Y120.133 E22.73085
G1 X85.5 Y110.367 E23.05566
G1 X85.54 Y109.62 E23.08054
G1 X85.659 Y108.882 E23.10541
G1 X85.857 Y108.16 E23.13031
G1 X86.13 Y107.464 E23.15517
G1 X86.477 Y106.801 E23.18006
G1 X86.892 Y106.178 E23.20496
G1 X87.55 Y105.417 E23.23842
G1 X87.667 Y105.3 E23.24392
G1 X88.224 Y104.8 E23.26882
G0 F6000 X88.491 Y105.099
G1 F1200 X89.082 Y104.676 E23.29299
G1 X89.716 Y104.322 E23.31714
G1 X90.385 Y104.039 E23.3413
G1 X91.081 Y103.831 E23.36546
G1 X91.796 Y103.701 E23.38964
G1 X92.617 Y103.65 E23.417
G1 X105.9 Y103.65 E23.85879
G1 X105.9 Y90.367 E24.30058
G1 X105.94 Y89.642 E24.32473
G1 X106.059 Y88.925 E24.34891
G1 X106.257 Y88.226 E24.37307
G1 X106.53 Y87.553 E24.39723
G1 X106.875 Y86.914 E24.42138
G1 X107.289 Y86.317 E24.44554
G1 X107.833 Y85.7 E24.4729
G1 X107.95 Y85.583 E24.47841
G1 X108.491 Y85.099 E24.50255
G1 X109.082 Y84.676 E24.52672
G1 X109.716 Y84.322 E24.55087
G1 X110.385 Y84.039 E24.57503
G1 X111.081 Y83.831 E24.59919
G1 X111.796 Y83.701 E24.62337
G1 X112.617 Y83.65 E24.65072
G1 X122.383 Y83.65 E24.97554
G1 X123.108 Y83.69 E24.99969
G1 X123.825 Y83.809 E25.02387
G1 X124.524 Y84.007 E25.04803
G1 X125.197 Y84.28 E25.07219
G1 X125.836 Y84.625 E25.09634
G1 X126.433 Y85.039 E25.1205
G1 X127.05 Y85.583 E25.14786
G1 X127.167 Y85.7 E25.15336
G1 X127.651 Y86.241 E25.17751
G1 X128.074 Y86.832 E25.20168
G1 X128.428 Y87.466 E25.22583
G1 X128.711 Y88.135 E25.24999
G1 X128.919 Y88.831 E25.27415
G1 X129.049 Y89.546 E25.29832
G1 X129.1 Y90.367 E25.32568
G1 X129.1 Y103.65 E25.76748
G1 X142.383 Y103.65 E26.20927
G1 X143.108 Y103.69 E26.23342
G1 X143.825 Y103.809 E26.2576
G1 X144.524 Y104.007 E26.28176
G1 X145.197 Y104.28 E26.30592
G1 X145.836 Y104.625 E26.33007
G1 X146.433 Y105.039 E26.35423
G1 X147.05 Y105.583 E26.38159
G1 X147.167 Y105.7 E26.38709
G1 X147.651 Y106.241 E26.41124
G1 X148.074 Y106.832 E26.43541
G1 X148.428 Y107.466 E26.45956
G1 X148.711 Y108.135 E26.48372
G1 X148.919 Y108.831 E26.50788
G1 X149.049 Y109.546 E26.53205
G1 X149.1 Y110.367 E26.55941
G1 X149.1 Y120.133 E26.88423
G1 X149.06 Y120.858 E26.90838
G1 X148.941 Y121.575 E26.93256
G1 X148.743 Y122.274 E26.95672
G1 X148.47 Y122.947 E26.98087
G1 X148.125 Y123.586 E27.00503
G1 X147.711 Y124.183 E27.02919
G1 X147.167 Y124.8 E27.05655
G1 X147.05 Y124.917 E27.06205
G1 X146.509 Y125.401 E27.0862
G1 X145.918 Y125.824 E27.11037
G1 X145.284 Y126.178 E27.13452
G1 X144.615 Y126.461 E27.15868
G1 X143.919 Y126.669 E27.18284
G1 X143.204 Y126.799 E27.20701
G1 X142.383 Y126.85 E27.23437
G1 X129.1 Y126.85 E27.67617
G1 X129.1 Y140.133 E28.11796
G1 X129.06 Y140.858 E28.14211
G1 X128.941 Y141.575 E28.16628
G1 X128.743 Y142.274 E28.19045
G1 X128.47 Y142.947 E28.2146
G1 X128.125 Y143.586 E28.23876
G1 X127.711 Y144.183 E28.26292
G1 X127.167 Y144.8 E28.29028
