;FLAVOR:Marlin
;TIME:2486
;Filament used: 1.43703m
;Layer height: 0.2
;MINX:84.7
;MINY:82.1
;MINZ:0.2
;MAXX:150.3
;MAXY:147.7
;MAXZ:8.2
;Generated with Cura_SteamEngine 4.8.0
M140 S50
M105
M190 S50
M104 S200
M105
M109 S200
M82 ;absolute extrusion mode
; Ender 3 Custom Start G-code
G92 E0 ; Reset Extruder
G28 ; Home all axes
G1 Z2.0 F3000 ; Move Z Axis up little to prevent scratching of Heat Bed
G1 X0.1 Y20 Z0.3 F5000.0 ; Move to start position
G1 X0.1 Y200.0 Z0.3 F1500.0 E15 ; Draw the first line
G1 X0.4 Y200.0 Z0.3 F5000.0 ; Move to side a little
G1 X0.4 Y20 Z0.3 F1500.0 E30 ; Draw the second line
G92 E0 ; Reset Extruder
G1 Z2.0 F3000 ; Move Z Axis up little to prevent scratching of Heat Bed
G1 X5 Y20 Z0.3 F5000.0 ; Move over to prevent blob squish
G92 E0
G92 E0
G1 F2700 E-5
;LAYER_COUNT:41
;LAYER:0
M107
G0 F6000 X87.688 Y103.855 Z0.2
;TYPE:SKIRT
G1 F2700 E0
G1 F1200 X88.324 Y103.388 E0.02624
G1 X89.004 Y102.987 E0.0525
G1 X89.722 Y102.657 E0.07878
G1 X90.469 Y102.402 E0.10504
G1 X91.238 Y102.223 E0.1313
G1 X92.022 Y102.123 E0.15758
G1 X92.617 Y102.1 E0.17739
G1 X104.7 Y102.1 E0.57927
G1 X104.7 Y90.017 E0.98115
G1 X104.74 Y89.228 E1.00743
G1 X104.859 Y88.448 E1.03367
G1 X105.057 Y87.683 E1.05995
G1 X105.331 Y86.943 E1.0862
G1 X105.679 Y86.234 E1.11247
G1 X106.097 Y85.563 E1.13876
G1 X106.58 Y84.939 E1.16501
G1 X106.985 Y84.502 E1.18482
G1 X107.102 Y84.385 E1.19033
G1 X107.688 Y83.855 E1.21661
G1 X108.324 Y83.388 E1.24285
G1 X109.004 Y82.987 E1.26911
G1 X109.722 Y82.657 E1.29539
G1 X110.469 Y82.402 E1.32164
G1 X111.238 Y82.223 E1.3479
G1 X112.022 Y82.123 E1.37419
G1 X112.617 Y82.1 E1.394
G1 X122.383 Y82.1 E1.71881
G1 X123.172 Y82.14 E1.74509
G1 X123.952 Y82.259 E1.77133
G1 X124.717 Y82.457 E1.79762
G1 X125.457 Y82.731 E1.82386
G1 X126.166 Y83.079 E1.85013
G1 X126.837 Y83.497 E1.87642
G1 X127.461 Y83.98 E1.90267
G1 X127.898 Y84.385 E1.92249
G1 X128.015 Y84.502 E1.92799
G1 X128.545 Y85.088 E1.95427
G1 X129.012 Y85.724 E1.98051
G1 X129.413 Y86.404 E2.00677
G1 X129.743 Y87.122 E2.03305
G1 X129.998 Y87.869 E2.0593
G1 X130.177 Y88.638 E2.08556
G1 X130.277 Y89.422 E2.11185
G1 X130.3 Y90.017 E2.13166
G1 X130.3 Y102.1 E2.53354
G1 X142.383 Y102.1 E2.93542
G1 X143.172 Y102.14 E2.9617
G1 X143.952 Y102.259 E2.98794
G1 X144.717 Y102.457 E3.01422
G1 X145.457 Y102.731 E3.04047
G1 X146.166 Y103.079 E3.06674
G1 X146.837 Y103.497 E3.09303
G1 X147.461 Y103.98 E3.11928
G1 X147.898 Y104.385 E3.13909
G1 X148.015 Y104.502 E3.1446
G1 X148.545 Y105.088 E3.17088
G1 X149.012 Y105.724 E3.19712
G1 X149.413 Y106.404 E3.22338
G1 X149.743 Y107.122 E3.24966
G1 X149.998 Y107.869 E3.27591
G1 X150.177 Y108.638 E3.30217
G1 X150.277 Y109.422 E3.32846
G1 X150.3 Y110.017 E3.34826
G1 X150.3 Y119.783 E3.67308
G1 X150.26 Y120.572 E3.69936
G1 X150.141 Y121.352 E3.7256
G1 X149.943 Y122.117 E3.75188
G1 X149.669 Y122.857 E3.77813
G1 X149.321 Y123.566 E3.8044
G1 X148.903 Y124.237 E3.83069
G1 X148.42 Y124.861 E3.85694
G1 X148.015 Y125.298 E3.87675
G1 X147.898 Y125.415 E3.88226
G1 X147.312 Y125.945 E3.90854
G1 X146.676 Y126.412 E3.93478
G1 X145.996 Y126.813 E3.96104
G1 X145.278 Y127.143 E3.98732
G1 X144.531 Y127.398 E4.01357
G1 X143.762 Y127.577 E4.03983
G1 X142.978 Y127.677 E4.06612
G1 X142.383 Y127.7 E4.08593
G1 X130.3 Y127.7 E4.48781
G1 X130.3 Y139.783 E4.88969
G1 X130.26 Y140.572 E4.91597
G1 X130.141 Y141.352 E4.94221
G1 X129.943 Y142.117 E4.96849
G1 X129.669 Y142.857 E4.99474
G1 X129.321 Y143.566 E5.02101
G1 X128.903 Y144.237 E5.0473
G1 X128.42 Y144.861 E5.07354
G1 X128.015 Y145.298 E5.09336
G1 X127.898 Y145.415 E5.09886
G1 X127.312 Y145.945 E5.12514
G1 X126.676 Y146.412 E5.15139
G1 X125.996 Y146.813 E5.17764
G1 X125.278 Y147.143 E5.20393
G1 X124.531 Y147.398 E5.23018
G1 X123.762 Y147.577 E5.25644
G1 X122.978 Y147.677 E5.28273
G1 X122.383 Y147.7 E5.30253
G1 X112.617 Y147.7 E5.62735
G1 X111.828 Y147.66 E5.65363
G1 X111.048 Y147.541 E5.67987
G1 X110.283 Y147.343 E5.70615
G1 X109.543 Y147.069 E5.7324
G1 X108.834 Y146.721 E5.75867
G1 X108.163 Y146.303 E5.78496
G1 X107.539 Y145.82 E5.81121
G1 X107.102 Y145.415 E5.83102
G1 X106.985 Y145.298 E5.83653
G1 X106.455 Y144.712 E5.86281
G1 X105.988 Y144.076 E5.88905
G1 X105.587 Y143.396 E5.91531
G1 X105.284 Y142.736 E5.93946
G1 X97.703 Y142.736 E6.19161
G1 X96.914 Y142.696 E6.21788
G1 X96.134 Y142.577 E6.24412
G1 X95.369 Y142.379 E6.27041
G1 X94.629 Y142.105 E6.29665
G1 X93.92 Y141.757 E6.32292
G1 X93.249 Y141.339 E6.34921
G1 X92.625 Y140.856 E6.37546
G1 X92.188 Y140.451 E6.39528
G1 X92.071 Y140.334 E6.40078
G1 X91.541 Y139.748 E6.42706
G1 X91.074 Y139.112 E6.4533
G1 X90.673 Y138.432 E6.47956
G1 X90.343 Y137.714 E6.50584
G1 X90.088 Y136.967 E6.5321
G1 X89.909 Y136.198 E6.55836
G1 X89.809 Y135.414 E6.58464
G1 X89.786 Y134.819 E6.60445
G1 X89.786 Y127.159 E6.85922
G1 X89.543 Y127.069 E6.86784
G1 X88.834 Y126.721 E6.89411
G1 X88.163 Y126.303 E6.9204
G1 X87.539 Y125.82 E6.94665
G1 X87.102 Y125.415 E6.96646
G1 X86.985 Y125.298 E6.97197
G1 X86.455 Y124.712 E6.99825
G1 X85.988 Y124.076 E7.02449
G1 X85.587 Y123.396 E7.05075
G1 X85.257 Y122.678 E7.07703
G1 X85.002 Y121.931 E7.10328
G1 X84.823 Y121.162 E7.12954
G1 X84.723 Y120.378 E7.15583
G1 X84.7 Y119.783 E7.17564
G1 X84.7 Y110.017 E7.50045
G1 X84.74 Y109.228 E7.52673
G1 X84.859 Y108.448 E7.55297
G1 X85.057 Y107.683 E7.57926
G1 X85.331 Y106.943 E7.6055
G1 X85.679 Y106.234 E7.63177
G1 X86.097 Y105.563 E7.65806
G1 X86.58 Y104.939 E7.68431
G1 X86.985 Y104.502 E7.70413
G1 X87.102 Y104.385 E7.70963
G1 X87.688 Y103.855 E7.73591
G0 F6000 X87.956 Y104.153
G1 F1200 X88.578 Y103.7 E7.7615
G1 X89.243 Y103.314 E7.78708
G1 X89.945 Y102.999 E7.81267
G1 X90.676 Y102.759 E7.83826
G1 X91.427 Y102.596 E7.86382
G1 X92.192 Y102.512 E7.88941
G1 X92.617 Y102.5 E7.90355
G1 X105.1 Y102.5 E8.31874
G1 X105.1 Y90.017 E8.73393
G1 X105.14 Y89.249 E8.75951
G1 X105.259 Y88.489 E8.78509
G1 X105.457 Y87.746 E8.81067
G1 X105.731 Y87.027 E8.83626
G1 X106.078 Y86.341 E8.86183
G1 X106.494 Y85.694 E8.88741
G1 X106.975 Y85.094 E8.91299
G1 X107.267 Y84.784 E8.92715
G1 X107.384 Y84.667 E8.93266
G1 X107.956 Y84.153 E8.95823
G1 X108.578 Y83.7 E8.98383
G1 X109.243 Y83.314 E9.0094
G1 X109.945 Y82.999 E9.03499
G1 X110.676 Y82.759 E9.06058
G1 X111.427 Y82.596 E9.08614
G1 X112.192 Y82.512 E9.11174
G1 X112.617 Y82.5 E9.12588
G1 X122.383 Y82.5 E9.4507
G1 X123.151 Y82.54 E9.47628
G1 X123.911 Y82.659 E9.50186
G1 X124.654 Y82.857 E9.52744
G1 X125.373 Y83.131 E9.55303
G1 X126.059 Y83.478 E9.5786
G1 X126.706 Y83.894 E9.60418
G1 X127.306 Y84.375 E9.62976
G1 X127.616 Y84.667 E9.64392
G1 X127.733 Y84.784 E9.64943
G1 X128.247 Y85.356 E9.675
G1 X128.7 Y85.978 E9.7006
G1 X129.086 Y86.643 E9.72617
G1 X129.401 Y87.345 E9.75176
G1 X129.641 Y88.076 E9.77735
G1 X129.804 Y88.827 E9.80291
G1 X129.888 Y89.592 E9.82851
G1 X129.9 Y90.017 E9.84265
G1 X129.9 Y102.5 E10.25784
G1 X142.383 Y102.5 E10.67302
G1 X143.151 Y102.54 E10.6986
G1 X143.911 Y102.659 E10.72419
G1 X144.654 Y102.857 E10.74976
G1 X145.373 Y103.131 E10.77535
G1 X146.059 Y103.478 E10.80092
G1 X146.706 Y103.894 E10.82651
G1 X147.306 Y104.375 E10.85208
G1 X147.616 Y104.667 E10.86625
G1 X147.733 Y104.784 E10.87175
G1 X148.247 Y105.356 E10.89733
G1 X148.7 Y105.978 E10.92292
G1 X149.086 Y106.643 E10.9485
G1 X149.401 Y107.345 E10.97409
G1 X149.641 Y108.076 E10.99968
G1 X149.804 Y108.827 E11.02524
G1 X149.888 Y109.592 E11.05083
G1 X149.9 Y110.017 E11.06497
G1 X149.9 Y119.783 E11.38979
G1 X149.86 Y120.551 E11.41537
G1 X149.741 Y121.311 E11.44096
G1 X149.543 Y122.054 E11.46653
G1 X149.269 Y122.773 E11.49212
G1 X148.922 Y123.459 E11.51769
G1 X148.506 Y124.106 E11.54328
G1 X148.025 Y124.706 E11.56885
G1 X147.733 Y125.016 E11.58302
G1 X147.616 Y125.133 E11.58852
G1 X147.044 Y125.647 E11.6141
G1 X146.422 Y126.1 E11.63969
G1 X145.757 Y126.486 E11.66527
G1 X145.055 Y126.801 E11.69086
G1 X144.324 Y127.041 E11.71645
G1 X143.573 Y127.204 E11.74201
G1 X142.808 Y127.288 E11.7676
G1 X142.383 Y127.3 E11.78175
G1 X129.9 Y127.3 E12.19693
G1 X129.9 Y139.783 E12.61212
G1 X129.86 Y140.551 E12.6377
G1 X129.741 Y141.311 E12.66328
G1 X129.543 Y142.054 E12.68886
G1 X129.269 Y142.773 E12.71445
G1 X128.922 Y143.459 E12.74002
G1 X128.506 Y144.106 E12.7656
G1 X128.025 Y144.706 E12.79118
G1 X127.733 Y145.016 E12.80534
G1 X127.616 Y145.133 E12.81085
G1 X127.044 Y145.647 E12.83642
G1 X126.422 Y146.1 E12.86202
G1 X125.757 Y146.486 E12.88759
G1 X125.055 Y146.801 E12.91318
G1 X124.324 Y147.041 E12.93877
G1 X123.573 Y147.204 E12.96433
G1 X122.808 Y147.288 E12.98993
G1 X122.383 Y147.3 E13.00407
G1 X112.617 Y147.3 E13.32889
G1 X111.849 Y147.26 E13.35447
G1 X111.089 Y147.141 E13.38005
G1 X110.346 Y146.943 E13.40563
G1 X109.627 Y146.669 E13.43122
G1 X108.941 Y146.322 E13.45679
G1 X108.294 Y145.906 E13.48237
G1 X107.694 Y145.425 E13.50795
G1 X107.384 Y145.133 E13.52211
G1 X107.267 Y145.016 E13.52762
G1 X106.753 Y144.444 E13.55319
G1 X106.3 Y143.822 E13.57879
G1 X105.914 Y143.157 E13.60436
G1 X105.599 Y142.455 E13.62995
G1 X105.56 Y142.336 E13.63412
G1 X97.703 Y142.336 E13.89544
G1 X96.935 Y142.296 E13.92102
G1 X96.175 Y142.177 E13.94661
G1 X95.432 Y141.979 E13.97218
G1 X94.713 Y141.705 E13.99777
G1 X94.027 Y141.358 E14.02334
G1 X93.38 Y140.942 E14.04893
G1 X92.78 Y140.461 E14.0745
G1 X92.47 Y140.169 E14.08867
G1 X92.353 Y140.052 E14.09417
G1 X91.839 Y139.48 E14.11975
G1 X91.386 Y138.858 E14.14534
G1 X91 Y138.193 E14.17091
G1 X90.685 Y137.491 E14.19651
G1 X90.445 Y136.76 E14.2221
G1 X90.282 Y136.009 E14.24766
G1 X90.198 Y135.244 E14.27325
G1 X90.186 Y134.819 E14.28739
G1 X90.186 Y126.882 E14.55138
G1 X89.627 Y126.669 E14.57128
G1 X88.941 Y126.322 E14.59685
G1 X88.294 Y125.906 E14.62243
G1 X87.694 Y125.425 E14.64801
G1 X87.384 Y125.133 E14.66217
G1 X87.267 Y125.016 E14.66767
G1 X86.753 Y124.444 E14.69325
G1 X86.3 Y123.822 E14.71884
G1 X85.914 Y123.157 E14.74442
G1 X85.599 Y122.455 E14.77001
G1 X85.359 Y121.724 E14.7956
G1 X85.196 Y120.973 E14.82116
G1 X85.112 Y120.208 E14.84676
G1 X85.1 Y119.783 E14.8609
G1 X85.1 Y110.017 E15.18572
G1 X85.14 Y109.249 E15.2113
G1 X85.259 Y108.489 E15.23688
G1 X85.457 Y107.746 E15.26246
G1 X85.731 Y107.027 E15.28805
G1 X86.078 Y106.341 E15.31362
G1 X86.494 Y105.694 E15.3392
G1 X86.975 Y105.094 E15.36478
G1 X87.267 Y104.784 E15.37894
G1 X87.384 Y104.667 E15.38444
G1 X87.956 Y104.153 E15.41002
G0 F6000 X88.224 Y104.45
G1 F1200 X88.83 Y104.013 E15.43487
G1 X89.48 Y103.642 E15.45976
G1 X90.166 Y103.343 E15.48465
G1 X90.88 Y103.119 E15.50954
G1 X91.613 Y102.972 E15.53441
G1 X92.617 Y102.9 E15.56789
G1 X105.5 Y102.9 E15.99638
G1 X105.5 Y90.017 E16.42487
G1 X105.54 Y89.27 E16.44975
G1 X105.659 Y88.532 E16.47461
G1 X105.857 Y87.81 E16.49951
G1 X106.13 Y87.114 E16.52438
G1 X106.477 Y86.451 E16.54927
G1 X106.892 Y85.828 E16.57417
G1 X107.55 Y85.067 E16.60763
G1 X107.667 Y84.95 E16.61313
G1 X108.224 Y84.45 E16.63802
G1 X108.83 Y84.013 E16.66287
G1 X109.48 Y83.642 E16.68777
G1 X110.166 Y83.343 E16.71266
G1 X110.88 Y83.119 E16.73755
G1 X111.613 Y82.972 E16.76241
G1 X112.617 Y82.9 E16.79589
G1 X122.383 Y82.9 E17.12071
G1 X123.13 Y82.94 E17.14559
G1 X123.868 Y83.059 E17.17045
G1 X124.59 Y83.257 E17.19535
G1 X125.286 Y83.53 E17.22022
G1 X125.949 Y83.877 E17.24511
G1 X126.572 Y84.292 E17.27
G1 X127.333 Y84.95 E17.30347
G1 X127.45 Y85.067 E17.30897
G1 X127.95 Y85.624 E17.33386
G1 X128.387 Y86.23 E17.35871
G1 X128.758 Y86.88 E17.38361
G1 X129.057 Y87.566 E17.4085
G1 X129.281 Y88.28 E17.43338
G1 X129.428 Y89.013 E17.45825
G1 X129.5 Y90.017 E17.49173
G1 X129.5 Y102.9 E17.92022
G1 X142.383 Y102.9 E18.34871
G1 X143.13 Y102.94 E18.37359
G1 X143.868 Y103.059 E18.39845
G1 X144.59 Y103.257 E18.42335
G1 X145.286 Y103.53 E18.44822
G1 X145.949 Y103.877 E18.47311
G1 X146.572 Y104.292 E18.49801
G1 X147.333 Y104.95 E18.53147
G1 X147.45 Y105.067 E18.53697
G1 X147.95 Y105.624 E18.56187
G1 X148.387 Y106.23 E18.58672
G1 X148.758 Y106.88 E18.61161
G1 X149.057 Y107.566 E18.6365
G1 X149.281 Y108.28 E18.66139
G1 X149.428 Y109.013 E18.68625
G1 X149.5 Y110.017 E18.71973
G1 X149.5 Y119.783 E19.04455
G1 X149.46 Y120.53 E19.06943
G1 X149.341 Y121.268 E19.09429
G1 X149.143 Y121.99 E19.11919
G1 X148.87 Y122.686 E19.14406
G1 X148.523 Y123.349 E19.16895
G1 X148.108 Y123.972 E19.19385
G1 X147.45 Y124.733 E19.22731
G1 X147.333 Y124.85 E19.23281
G1 X146.776 Y125.35 E19.25771
G1 X146.17 Y125.787 E19.28255
G1 X145.52 Y126.158 E19.30745
G1 X144.834 Y126.457 E19.33234
G1 X144.12 Y126.681 E19.35723
G1 X143.387 Y126.828 E19.38209
G1 X142.383 Y126.9 E19.41557
G1 X129.5 Y126.9 E19.84406
G1 X129.5 Y139.783 E20.27255
G1 X129.46 Y140.53 E20.29743
G1 X129.341 Y141.268 E20.32229
G1 X129.143 Y141.99 E20.3472
G1 X128.87 Y142.686 E20.37206
G1 X128.523 Y143.349 E20.39695
G1 X128.108 Y143.972 E20.42185
G1 X127.45 Y144.733 E20.45531
G1 X127.333 Y144.85 E20.46081
G1 X126.776 Y145.35 E20.48571
G1 X126.17 Y145.787 E20.51056
G1 X125.52 Y146.158 E20.53545
G1 X124.834 Y146.457 E20.56034
G1 X124.12 Y146.681 E20.58523
G1 X123.387 Y146.828 E20.61009
G1 X122.383 Y146.9 E20.64357
G1 X112.617 Y146.9 E20.96839
G1 X111.87 Y146.86 E20.99327
G1 X111.132 Y146.741 E21.01813
G1 X110.41 Y146.543 E21.04303
G1 X109.714 Y146.27 E21.0679
G1 X109.051 Y145.923 E21.09279
G1 X108.428 Y145.508 E21.11769
G1 X107.667 Y144.85 E21.15115
G1 X107.55 Y144.733 E21.15665
G1 X107.05 Y144.176 E21.18155
G1 X106.613 Y143.57 E21.2064
G1 X106.242 Y142.92 E21.23129
G1 X105.943 Y142.234 E21.25618
G1 X105.85 Y141.936 E21.26656
G1 X97.703 Y141.936 E21.53753
G1 X96.956 Y141.896 E21.56241
G1 X96.218 Y141.777 E21.58728
G1 X95.496 Y141.579 E21.61218
G1 X94.8 Y141.306 E21.63704
G1 X94.137 Y140.959 E21.66193
G1 X93.514 Y140.544 E21.68683
G1 X92.753 Y139.886 E21.72029
G1 X92.636 Y139.769 E21.72579
G1 X92.136 Y139.212 E21.75069
G1 X91.699 Y138.606 E21.77554
G1 X91.328 Y137.956 E21.80043
G1 X91.029 Y137.27 E21.82532
G1 X90.805 Y136.556 E21.85021
G1 X90.658 Y135.823 E21.87507
G1 X90.586 Y134.819 E21.90855
G1 X90.586 Y126.591 E22.18222
G1 X90.41 Y126.543 E22.18828
G1 X89.714 Y126.27 E22.21315
G1 X89.051 Y125.923 E22.23804
G1 X88.428 Y125.508 E22.26294
G1 X87.667 Y124.85 E22.2964
G1 X87.55 Y124.733 E22.3019
G1 X87.05 Y124.176 E22.3268
G1 X86.613 Y123.57 E22.35165
G1 X86.242 Y122.92 E22.37654
G1 X85.943 Y122.234 E22.40143
G1 X85.719 Y121.52 E22.42632
G1 X85.572 Y120.787 E22.45118
G1 X85.5 Y119.783 E22.48466
G1 X85.5 Y110.017 E22.80948
G1 X85.54 Y109.27 E22.83436
G1 X85.659 Y108.532 E22.85922
G1 X85.857 Y107.81 E22.88412
G1 X86.13 Y107.114 E22.90899
G1 X86.477 Y106.451 E22.93388
G1 X86.892 Y105.828 E22.95878
G1 X87.55 Y105.067 E22.99224
G1 X87.667 Y104.95 E22.99774
G1 X88.224 Y104.45 E23.02264
G0 F6000 X88.491 Y104.749
G1 F1200 X89.082 Y104.326 E23.04681
G1 X89.716 Y103.972 E23.07096
G1 X90.385 Y103.689 E23.09512
G1 X91.081 Y103.481 E23.11928
G1 X91.796 Y103.351 E23.14345
G1 X92.617 Y103.3 E23.17081
G1 X105.9 Y103.3 E23.61261
G1 X105.9 Y90.017 E24.0544
G1 X105.94 Y89.292 E24.07855
G1 X106.059 Y88.575 E24.10272
G1 X106.257 Y87.876 E24.12689
G1 X106.53 Y87.203 E24.15104
G1 X106.875 Y86.564 E24.1752
G1 X107.289 Y85.967 E24.19936
G1 X107.833 Y85.35 E24.22672
G1 X107.95 Y85.233 E24.23222
G1 X108.491 Y84.749 E24.25637
G1 X109.082 Y84.326 E24.28054
G1 X109.716 Y83.972 E24.30469
G1 X110.385 Y83.689 E24.32885
G1 X111.081 Y83.481 E24.35301
G1 X111.796 Y83.351 E24.37718
G1 X112.617 Y83.3 E24.40454
G1 X122.383 Y83.3 E24.72936
G1 X123.108 Y83.34 E24.75351
G1 X123.825 Y83.459 E24.77768
G1 X124.524 Y83.657 E24.80185
G1 X125.197 Y83.93 E24.826
G1 X125.836 Y84.275 E24.85015
G1 X126.433 Y84.689 E24.87432
G1 X127.05 Y85.233 E24.90168
G1 X127.167 Y85.35 E24.90718
G1 X127.651 Y85.891 E24.93132
G1 X128.074 Y86.482 E24.9555
G1 X128.428 Y87.116 E24.97965
G1 X128.711 Y87.785 E25.00381
G1 X128.919 Y88.481 E25.02797
G1 X129.049 Y89.196 E25.05214
G1 X129.1 Y90.017 E25.0795
G1 X129.1 Y103.3 E25.52129
G1 X142.383 Y103.3 E25.96309
G1 X143.108 Y103.34 E25.98724
G1 X143.825 Y103.459 E26.01141
G1 X144.524 Y103.657 E26.03558
G1 X145.197 Y103.93 E26.05973
G1 X145.836 Y104.275 E26.08388
G1 X146.433 Y104.689 E26.10805
G1 X147.05 Y105.233 E26.13541
G1 X147.167 Y105.35 E26.14091
G1 X147.651 Y105.891 E26.16505
G1 X148.074 Y106.482 E26.18923
