;FLAVOR:Marlin
;TIME:4447
;Filament used: 1.99554m
;Layer height: 0.2
;MINX:84.762
;MINY:94.979
;MINZ:0.2
;MAXX:150.222
;MAXY:136.989
;MAXZ:20
;Generated with Cura_SteamEngine 4.8.0
M140 S50
M105
M190 S50
M104 S200
M105
M109 S200
M82 ;absolute extrusion mode
; Ender 3 Custom Start G-code
G92 E0 ; Reset Extruder
G28 ; Home all axes
G1 Z2.0 F3000 ; Move Z Axis up little to prevent scratching of Heat Bed
G1 X0.1 Y20 Z0.3 F5000.0 ; Move to start position
G1 X0.1 Y200.0 Z0.3 F1500.0 E15 ; Draw the first line
G1 X0.4 Y200.0 Z0.3 F5000.0 ; Move to side a little
G1 X0.4 Y20 Z0.3 F1500.0 E30 ; Draw the second line
G92 E0 ; Reset Extruder
G1 Z2.0 F3000 ; Move Z Axis up little to prevent scratching of Heat Bed
G1 X5 Y20 Z0.3 F5000.0 ; Move over to prevent blob squish
G92 E0
G92 E0
G1 F2700 E-5
;LAYER_COUNT:100
;LAYER:0
M107
G0 F6000 X89.589 Y100.416 Z0.2
;TYPE:SKIRT
G1 F2700 E0
G1 F1200 X89.833 Y100.209 E0.01064
G1 X90.943 Y99.381 E0.0567
G1 X91.121 Y99.265 E0.06377
G1 X91.468 Y99.049 E0.07736
G1 X91.783 Y98.86 E0.08958
G1 X92.902 Y98.273 E0.13161
G1 X93.03 Y98.215 E0.13628
G1 X93.516 Y98.008 E0.15385
G1 X93.859 Y97.872 E0.16612
G1 X94.71 Y97.575 E0.1961
G1 X95.285 Y97.4 E0.21609
G1 X95.58 Y97.314 E0.22631
G1 X97.342 Y96.831 E0.28708
G1 X97.925 Y96.68 E0.30711
G1 X100.374 Y95.971 E0.39191
G1 X101.609 Y95.581 E0.43499
G1 X101.997 Y95.464 E0.44846
G1 X102.906 Y95.232 E0.47967
G1 X103.831 Y95.078 E0.51086
G1 X104.692 Y95.007 E0.53959
G1 X104.852 Y95 E0.54492
G1 X105.199 Y94.99 E0.55646
G1 X105.74 Y94.984 E0.57446
G1 X117.263 Y94.982 E0.95771
G1 X121.193 Y94.984 E1.08843
G1 X122.418 Y94.979 E1.12917
G1 X122.548 Y94.984 E1.1335
G1 X132.749 Y94.985 E1.47278
G1 X133.45 Y94.995 E1.4961
G1 X134.386 Y95.048 E1.52728
G1 X135.315 Y95.181 E1.5585
G1 X135.969 Y95.324 E1.58076
G1 X136.868 Y95.59 E1.61195
G1 X137.742 Y95.932 E1.64316
G1 X138.664 Y96.392 E1.67743
G1 X141.037 Y97.717 E1.76783
G1 X142.903 Y98.694 E1.83788
G1 X143.191 Y98.85 E1.84878
G1 X143.328 Y98.927 E1.854
G1 X144.28 Y99.528 E1.89145
G1 X145.092 Y100.101 E1.9245
G1 X145.701 Y100.545 E1.94957
G1 X146.433 Y101.131 E1.98076
G1 X147.113 Y101.777 E2.01195
G1 X147.735 Y102.479 E2.04315
G1 X148.296 Y103.231 E2.07435
G1 X148.79 Y104.028 E2.10554
G1 X149.214 Y104.864 E2.13672
G1 X149.566 Y105.734 E2.16793
G1 X149.842 Y106.63 E2.19912
G1 X150.041 Y107.547 E2.23033
G1 X150.161 Y108.477 E2.26151
G1 X150.197 Y109.088 E2.28187
G1 X150.215 Y109.685 E2.30174
G1 X150.22 Y109.949 E2.31052
G1 X150.222 Y110.347 E2.32376
G1 X150.221 Y111.758 E2.37069
G1 X150.208 Y112.593 E2.39846
G1 X150.153 Y113.53 E2.42968
G1 X150.018 Y114.458 E2.46087
G1 X149.804 Y115.371 E2.49206
G1 X149.513 Y116.262 E2.52324
G1 X149.03 Y117.367 E2.56335
G1 X148.489 Y118.439 E2.60328
G1 X147.342 Y120.794 E2.69041
G1 X146.315 Y123.061 E2.77319
G1 X145.337 Y125.395 E2.85735
G1 X144.418 Y127.771 E2.94209
G1 X143.934 Y129.137 E2.99029
G1 X143.715 Y129.722 E3.01106
G1 X143.349 Y130.585 E3.04224
G1 X142.911 Y131.414 E3.07343
G1 X142.403 Y132.203 E3.10464
G1 X141.831 Y132.946 E3.13582
G1 X141.156 Y133.679 E3.16897
G1 X141.046 Y133.788 E3.17412
G1 X140.352 Y134.419 E3.20531
G1 X139.607 Y134.988 E3.23649
G1 X138.816 Y135.493 E3.26771
G1 X137.985 Y135.928 E3.2989
G1 X137.12 Y136.29 E3.33009
G1 X136.228 Y136.578 E3.36127
G1 X135.314 Y136.789 E3.39247
G1 X134.385 Y136.921 E3.42367
G1 X133.674 Y136.968 E3.44737
G1 X133.289 Y136.978 E3.46018
G1 X132.746 Y136.984 E3.47825
G1 X122.483 Y136.984 E3.81959
G1 X121.226 Y136.986 E3.8614
G1 X117.296 Y136.984 E3.99211
G1 X116.071 Y136.989 E4.03286
G1 X115.941 Y136.984 E4.03719
G1 X105.731 Y136.983 E4.37677
G1 X105.029 Y136.973 E4.40012
G1 X104.093 Y136.92 E4.4313
G1 X103.165 Y136.787 E4.46248
G1 X102.251 Y136.575 E4.49369
G1 X101.358 Y136.287 E4.5249
G1 X100.494 Y135.923 E4.55608
G1 X99.663 Y135.487 E4.58729
G1 X98.873 Y134.982 E4.61848
G1 X98.129 Y134.412 E4.64965
G1 X97.257 Y133.598 E4.68933
G1 X97.132 Y133.468 E4.69533
G1 X96.511 Y132.765 E4.72652
G1 X95.953 Y132.012 E4.7577
G1 X95.496 Y131.277 E4.78648
G1 X95.145 Y130.659 E4.81012
G1 X93.856 Y128.464 E4.89479
G1 X92.5 Y126.294 E4.97989
G1 X91.114 Y124.213 E5.06305
G1 X89.681 Y122.188 E5.14556
G1 X88.351 Y120.432 E5.21883
G1 X88.171 Y120.172 E5.22935
G1 X87.521 Y119.322 E5.26494
G1 X86.832 Y118.308 E5.30571
G1 X86.737 Y118.15 E5.31184
G1 X86.424 Y117.595 E5.33304
G1 X86.245 Y117.254 E5.34585
G1 X85.845 Y116.405 E5.37706
G1 X85.626 Y115.841 E5.39718
G1 X85.475 Y115.397 E5.41278
G1 X85.383 Y115.107 E5.4229
G1 X85.103 Y114.041 E5.45956
G1 X85.065 Y113.86 E5.46571
G1 X84.951 Y113.228 E5.48707
G1 X84.885 Y112.787 E5.5019
G1 X84.767 Y111.425 E5.54737
G1 X84.764 Y111.301 E5.5515
G1 X84.762 Y110.891 E5.56513
G1 X84.765 Y110.662 E5.57275
G1 X84.817 Y109.725 E5.60396
G1 X84.913 Y109 E5.62829
G1 X85.019 Y108.363 E5.64977
G1 X85.212 Y107.446 E5.68093
G1 X85.406 Y106.778 E5.70407
G1 X85.441 Y106.67 E5.70785
G1 X85.613 Y106.177 E5.72521
G1 X85.713 Y105.912 E5.73463
G1 X86.082 Y105.05 E5.76582
G1 X86.346 Y104.533 E5.78513
G1 X86.522 Y104.21 E5.79736
G1 X86.697 Y103.9 E5.8092
G1 X86.811 Y103.706 E5.81669
G1 X87.32 Y102.918 E5.84789
G1 X87.637 Y102.493 E5.86552
G1 X87.782 Y102.308 E5.87334
G1 X88.029 Y102.004 E5.88637
G1 X88.19 Y101.813 E5.89468
G1 X89.017 Y100.936 E5.93477
G1 X89.121 Y100.837 E5.93954
G1 X89.589 Y100.416 E5.96048
G0 F6000 X89.848 Y100.721
G1 F1200 X90.092 Y100.514 E5.97112
G1 X91.162 Y99.716 E6.01552
G1 X91.34 Y99.6 E6.02259
G1 X91.673 Y99.392 E6.03564
G1 X91.988 Y99.203 E6.04786
G1 X93.067 Y98.637 E6.08839
G1 X93.195 Y98.579 E6.09306
G1 X93.663 Y98.38 E6.10998
G1 X94.006 Y98.244 E6.12225
G1 X94.827 Y97.957 E6.15118
G1 X95.402 Y97.782 E6.17117
G1 X95.686 Y97.7 E6.181
G1 X97.598 Y97.177 E6.24693
G1 X98.063 Y97.057 E6.2629
G1 X100.491 Y96.354 E6.34697
G1 X101.725 Y95.964 E6.39002
G1 X102.113 Y95.847 E6.4035
G1 X103.005 Y95.62 E6.43411
G1 X103.913 Y95.471 E6.46471
G1 X104.71 Y95.406 E6.49131
G1 X104.87 Y95.399 E6.49664
G1 X105.203 Y95.39 E6.50772
G1 X105.74 Y95.384 E6.52558
G1 X117.262 Y95.382 E6.9088
G1 X121.194 Y95.384 E7.03958
G1 X122.42 Y95.379 E7.08036
G1 X122.548 Y95.384 E7.08462
G1 X132.743 Y95.385 E7.4237
G1 X133.444 Y95.395 E7.44702
G1 X134.363 Y95.448 E7.47764
G1 X135.274 Y95.581 E7.50826
G1 X135.872 Y95.712 E7.52862
G1 X136.755 Y95.974 E7.55926
G1 X137.611 Y96.312 E7.58987
G1 X138.469 Y96.741 E7.62177
G1 X140.85 Y98.071 E7.71248
G1 X142.717 Y99.048 E7.78257
G1 X142.995 Y99.198 E7.79307
G1 X143.132 Y99.275 E7.7983
G1 X144.05 Y99.855 E7.83442
G1 X144.862 Y100.428 E7.86747
G1 X145.465 Y100.868 E7.8923
G1 X146.183 Y101.444 E7.92291
G1 X146.849 Y102.079 E7.95352
G1 X147.457 Y102.771 E7.98416
G1 X148.003 Y103.512 E8.01477
G1 X148.482 Y104.298 E8.04539
G1 X148.892 Y105.123 E8.07603
G1 X149.228 Y105.98 E8.10664
G1 X149.489 Y106.863 E8.13727
G1 X149.672 Y107.765 E8.16788
G1 X149.797 Y109.101 E8.21251
G1 X149.815 Y109.698 E8.23238
G1 X149.82 Y109.951 E8.24079
G1 X149.822 Y110.347 E8.25396
G1 X149.82 Y111.927 E8.30651
G1 X149.809 Y112.587 E8.32847
G1 X149.753 Y113.506 E8.35909
G1 X149.618 Y114.416 E8.38969
G1 X149.405 Y115.312 E8.42032
G1 X149.115 Y116.186 E8.45095
G1 X148.673 Y117.187 E8.48734
G1 X148.115 Y118.291 E8.52849
G1 X146.989 Y120.603 E8.61402
G1 X145.94 Y122.92 E8.69861
G1 X144.971 Y125.232 E8.78199
G1 X144.043 Y127.63 E8.86751
G1 X143.628 Y128.807 E8.90902
G1 X143.34 Y129.581 E8.93649
G1 X142.98 Y130.429 E8.96713
G1 X142.548 Y131.242 E8.99775
G1 X142.047 Y132.014 E9.02836
G1 X141.481 Y132.74 E9.05898
G1 X140.874 Y133.394 E9.08866
G1 X140.764 Y133.503 E9.09381
G1 X140.083 Y134.122 E9.12442
G1 X139.35 Y134.68 E9.15506
G1 X138.572 Y135.172 E9.18567
G1 X137.754 Y135.594 E9.21629
G1 X136.902 Y135.944 E9.24692
G1 X136.023 Y136.219 E9.27755
G1 X135.124 Y136.416 E9.30817
G1 X134.211 Y136.535 E9.33879
G1 X133.661 Y136.568 E9.35711
G1 X133.285 Y136.578 E9.36962
G1 X132.746 Y136.584 E9.38755
G1 X122.482 Y136.584 E9.72894
G1 X121.227 Y136.586 E9.77068
G1 X117.295 Y136.584 E9.90146
G1 X116.069 Y136.589 E9.94223
G1 X115.941 Y136.584 E9.94649
G1 X105.737 Y136.583 E10.28588
G1 X105.035 Y136.573 E10.30923
G1 X104.116 Y136.52 E10.33985
G1 X103.205 Y136.387 E10.37047
G1 X102.309 Y136.176 E10.40109
G1 X101.434 Y135.888 E10.43172
G1 X100.588 Y135.525 E10.46234
G1 X99.777 Y135.09 E10.49295
G1 X99.006 Y134.586 E10.52359
G1 X98.282 Y134.018 E10.55419
G1 X97.545 Y133.321 E10.58793
G1 X97.42 Y133.191 E10.59393
G1 X96.811 Y132.5 E10.62457
G1 X96.265 Y131.759 E10.65518
G1 X95.844 Y131.079 E10.68178
G1 X95.513 Y130.495 E10.70411
G1 X94.182 Y128.229 E10.79151
G1 X92.845 Y126.091 E10.87538
G1 X91.457 Y124.006 E10.95869
G1 X89.999 Y121.946 E11.04263
G1 X88.67 Y120.191 E11.11585
G1 X88.492 Y119.933 E11.12628
G1 X87.839 Y119.079 E11.16203
G1 X87.175 Y118.102 E11.20132
G1 X87.08 Y117.944 E11.20746
G1 X86.778 Y117.409 E11.22789
G1 X86.599 Y117.068 E11.2407
G1 X86.207 Y116.235 E11.27132
G1 X86.003 Y115.706 E11.29018
G1 X85.856 Y115.276 E11.30529
G1 X85.764 Y114.986 E11.31541
G1 X85.494 Y113.959 E11.35073
G1 X85.456 Y113.778 E11.35688
G1 X85.347 Y113.169 E11.37746
G1 X85.281 Y112.728 E11.39229
G1 X85.167 Y111.415 E11.43612
G1 X85.164 Y111.291 E11.44025
G1 X85.162 Y110.896 E11.45339
G1 X85.165 Y110.667 E11.461
G1 X85.217 Y109.748 E11.49162
G1 X85.308 Y109.066 E11.5145
G1 X85.414 Y108.429 E11.53598
G1 X85.604 Y107.528 E11.56661
G1 X85.786 Y106.901 E11.58832
G1 X85.821 Y106.793 E11.5921
G1 X85.988 Y106.319 E11.60881
G1 X86.088 Y106.054 E11.61823
G1 X86.45 Y105.207 E11.64887
G1 X86.697 Y104.724 E11.66691
G1 X86.873 Y104.401 E11.67915
G1 X87.042 Y104.103 E11.69054
G1 X87.156 Y103.909 E11.69803
G1 X87.657 Y103.136 E11.72867
G1 X87.952 Y102.74 E11.74509
G1 X88.097 Y102.555 E11.75291
G1 X88.335 Y102.262 E11.76546
G1 X88.496 Y102.071 E11.77377
G1 X89.292 Y101.225 E11.81241
G1 X89.396 Y101.126 E11.81718
G1 X89.848 Y100.721 E11.83737
G0 F6000 X90.106 Y101.026
G1 F1200 X90.35 Y100.819 E11.84801
G1 X91.38 Y100.051 E11.89074
G1 X91.558 Y99.935 E11.89781
G1 X91.879 Y99.735 E11.91039
G1 X92.194 Y99.546 E11.92261
G1 X93.232 Y99.001 E11.9616
G1 X93.36 Y98.943 E11.96627
G1 X93.81 Y98.752 E11.98253
G1 X94.153 Y98.616 E11.99481
G1 X94.943 Y98.34 E12.02264
G1 X95.518 Y98.165 E12.04263
G1 X95.791 Y98.086 E12.05208
G1 X97.698 Y97.564 E12.11784
G1 X98.169 Y97.442 E12.13402
G1 X100.597 Y96.74 E12.21809
G1 X101.84 Y96.347 E12.26145
G1 X102.228 Y96.23 E12.27493
G1 X103.104 Y96.008 E12.30498
G1 X103.995 Y95.864 E12.335
G1 X104.727 Y95.806 E12.35943
G1 X104.887 Y95.799 E12.36475
G1 X105.208 Y95.79 E12.37543
G1 X105.74 Y95.784 E12.39313
G1 X117.262 Y95.782 E12.77635
G1 X121.196 Y95.784 E12.9072
G1 X122.422 Y95.779 E12.94797
G1 X122.547 Y95.784 E12.95213
G1 X132.737 Y95.785 E13.29106
G1 X133.438 Y95.795 E13.31437
G1 X134.34 Y95.848 E13.34443
G1 X135.233 Y95.98 E13.37445
G1 X135.775 Y96.101 E13.39292
G1 X136.64 Y96.358 E13.42293
G1 X137.48 Y96.691 E13.45299
G1 X138.274 Y97.091 E13.48256
G1 X140.62 Y98.401 E13.57193
G1 X142.532 Y99.402 E13.64371
G1 X142.799 Y99.547 E13.65381
G1 X142.936 Y99.624 E13.65904
G1 X143.819 Y100.182 E13.69378
G1 X144.631 Y100.755 E13.72684
G1 X145.228 Y101.191 E13.75142
G1 X145.933 Y101.756 E13.78147
G1 X146.584 Y102.381 E13.81149
G1 X147.178 Y103.062 E13.84155
G1 X147.709 Y103.792 E13.87157
G1 X148.173 Y104.567 E13.90161
G1 X148.568 Y105.379 E13.93165
G1 X148.888 Y106.224 E13.9617
G1 X149.133 Y107.093 E13.99173
G1 X149.3 Y107.98 E14.02175
G1 X149.397 Y109.113 E14.05957
G1 X149.415 Y109.71 E14.07944
G1 X149.42 Y109.954 E14.08755
G1 X149.422 Y110.346 E14.10059
G1 X149.42 Y111.92 E14.15294
G1 X149.409 Y112.58 E14.1749
G1 X149.354 Y113.481 E14.20492
G1 X149.219 Y114.374 E14.23496
G1 X149.006 Y115.252 E14.26501
G1 X148.716 Y116.107 E14.29504
G1 X148.316 Y117.007 E14.32779
G1 X147.771 Y118.087 E14.36803
G1 X146.623 Y120.442 E14.45517
G1 X145.581 Y122.743 E14.53918
G1 X144.595 Y125.094 E14.62397
G1 X143.673 Y127.479 E14.70902
G1 X143.185 Y128.856 E14.75761
G1 X142.966 Y129.441 E14.77839
G1 X142.612 Y130.272 E14.80843
G1 X142.186 Y131.068 E14.83846
G1 X141.691 Y131.824 E14.86851
G1 X141.132 Y132.533 E14.89854
G1 X140.592 Y133.11 E14.92483
G1 X140.482 Y133.219 E14.92998
G1 X139.813 Y133.826 E14.96002
G1 X139.093 Y134.371 E14.99006
G1 X138.328 Y134.85 E15.02008
G1 X137.523 Y135.26 E15.05012
G1 X136.685 Y135.597 E15.08016
G1 X135.821 Y135.858 E15.11018
G1 X134.937 Y136.042 E15.14022
G1 X133.647 Y136.168 E15.18333
G1 X133.28 Y136.178 E15.19554
G1 X132.746 Y136.184 E15.2133
G1 X122.482 Y136.184 E15.55468
G1 X121.227 Y136.186 E15.59642
G1 X117.293 Y136.184 E15.72727
G1 X116.067 Y136.189 E15.76805
G1 X115.942 Y136.184 E15.77221
G1 X105.743 Y136.183 E16.11143
G1 X105.041 Y136.173 E16.13478
G1 X104.139 Y136.12 E16.16483
G1 X103.246 Y135.988 E16.19485
G1 X102.368 Y135.777 E16.22489
G1 X101.512 Y135.489 E16.25493
G1 X100.684 Y135.127 E16.28498
G1 X99.892 Y134.693 E16.31502
G1 X99.142 Y134.19 E16.34506
G1 X98.439 Y133.624 E16.37507
G1 X97.834 Y133.044 E16.40295
G1 X97.709 Y132.914 E16.40895
G1 X97.112 Y132.236 E16.439
G1 X96.578 Y131.507 E16.46905
G1 X96.192 Y130.882 E16.49348
G1 X95.845 Y130.271 E16.51685
G1 X94.533 Y128.036 E16.60305
G1 X93.184 Y125.879 E16.68767
G1 X91.773 Y123.759 E16.77237
G1 X90.321 Y121.708 E16.85595
G1 X88.989 Y119.949 E16.92934
G1 X88.821 Y119.706 E16.93916
G1 X88.156 Y118.836 E16.97558
G1 X87.517 Y117.896 E17.01339
G1 X87.422 Y117.738 E17.01952
G1 X87.133 Y117.223 E17.03916
G1 X86.954 Y116.882 E17.05197
G1 X86.57 Y116.064 E17.08203
G1 X86.379 Y115.572 E17.09958
G1 X86.238 Y115.155 E17.11422
G1 X86.146 Y114.865 E17.12434
G1 X85.886 Y113.877 E17.15832
G1 X85.848 Y113.696 E17.16447
G1 X85.742 Y113.11 E17.18428
G1 X85.676 Y112.669 E17.19911
G1 X85.567 Y111.406 E17.24127
G1 X85.564 Y111.282 E17.2454
G1 X85.562 Y110.901 E17.25807
G1 X85.565 Y110.672 E17.26569
G1 X85.617 Y109.771 E17.29571
G1 X85.702 Y109.132 E17.31715
G1 X85.808 Y108.495 E17.33862
G1 X85.996 Y107.611 E17.36868
G1 X86.167 Y107.024 E17.38902
G1 X86.202 Y106.916 E17.3928
G1 X86.362 Y106.46 E17.40887
G1 X86.462 Y106.195 E17.41829
G1 X86.818 Y105.365 E17.44833
G1 X87.048 Y104.916 E17.46511
G1 X87.224 Y104.593 E17.47734
G1 X87.387 Y104.305 E17.48835
G1 X87.501 Y104.111 E17.49583
G1 X87.993 Y103.354 E17.52586
G1 X88.267 Y102.987 E17.54109
G1 X88.412 Y102.802 E17.54891
G1 X88.641 Y102.52 E17.56099
G1 X88.802 Y102.329 E17.5693
G1 X89.568 Y101.515 E17.60648
G1 X89.672 Y101.416 E17.61125
G1 X90.106 Y101.026 E17.63066
G1 F2700 E12.63066
G0 F6000 X126.771 Y105.331
G0 X129.918 Y109.784
G1 F2700 E17.63066
G1 F1200 X130.005 Y109.784 E17.63355
G1 X130.262 Y110.239 E17.65093
G1 X130.599 Y110.675 E17.66926
G1 X130.914 Y110.979 E17.68382
G1 X130.595 Y111.288 E17.69859
G1 X130.259 Y111.724 E17.7169
G1 X129.989 Y112.205 E17.73525
G1 X129.918 Y112.389 E17.74181
G1 X129.918 Y109.784 E17.82845
G0 F6000 X130.39 Y109.665
G1 F1200 X130.659 Y110.111 E17.84577
G1 X130.993 Y110.511 E17.86311
G1 X131.246 Y110.746 E17.87459
G1 X131.524 Y110.979 E17.88666
G1 X131.247 Y111.211 E17.89867
G1 X130.874 Y111.575 E17.91601
G1 X130.562 Y111.992 E17.93333
G1 X130.316 Y112.452 E17.95068
G1 X130.144 Y112.944 E17.96802
G1 X130.048 Y113.456 E17.98534
G1 X130.029 Y113.819 E17.99743
G1 X130.028 Y122.584 E18.28896
G1 X129.519 Y122.584 E18.30589
G1 X129.518 Y109.384 E18.74492
G1 X130.275 Y109.384 E18.7701
G1 X130.39 Y109.665 E18.7802
G0 F6000 X130.789 Y109.564
G1 F1200 X131.056 Y109.974 E18.79647
G1 X131.503 Y110.439 E18.81792
G1 X131.809 Y110.695 E18.83119
G1 X132.209 Y110.977 E18.84747
G1 X132.227 Y110.986 E18.84814
G1 X131.81 Y111.262 E18.86477
G1 X131.504 Y111.518 E18.87804
G1 X131.155 Y111.862 E18.89434
G1 X130.867 Y112.257 E18.9106
G1 X130.648 Y112.695 E18.92689
G1 X130.502 Y113.162 E18.94316
G1 X130.429 Y113.819 E18.96515
G1 X130.428 Y122.984 E19.26998
G1 X129.119 Y122.984 E19.31351
G1 X129.118 Y108.984 E19.77915
G1 X130.558 Y108.984 E19.82705
G1 X130.592 Y109.116 E19.83158
G1 X130.789 Y109.564 E19.84786
G0 F6000 X130.991 Y109.045
G1 F1200 X131.187 Y109.456 E19.86301
G1 X131.452 Y109.827 E19.87817
G1 X131.76 Y110.132 E19.89259
G1 X132.066 Y110.388 E19.90586
G1 X132.439 Y110.649 E19.921
G1 X132.853 Y110.84 E19.93616
