;FLAVOR:Marlin
;TIME:4095
;Filament used: 1.88707m
;Layer height: 0.2
;MINX:87.977
;MINY:99.7
;MINZ:0.2
;MAXX:147.045
;MAXY:135.3
;MAXZ:20
;Generated with Cura_SteamEngine 4.8.0
M140 S50
M105
M190 S50
M104 S200
M105
M109 S200
M82 ;absolute extrusion mode
; Ender 3 Custom Start G-code
G92 E0 ; Reset Extruder
G28 ; Home all axes
G1 Z2.0 F3000 ; Move Z Axis up little to prevent scratching of Heat Bed
G1 X0.1 Y20 Z0.3 F5000.0 ; Move to start position
G1 X0.1 Y200.0 Z0.3 F1500.0 E15 ; Draw the first line
G1 X0.4 Y200.0 Z0.3 F5000.0 ; Move to side a little
G1 X0.4 Y20 Z0.3 F1500.0 E30 ; Draw the second line
G92 E0 ; Reset Extruder
G1 Z2.0 F3000 ; Move Z Axis up little to prevent scratching of Heat Bed
G1 X5 Y20 Z0.3 F5000.0 ; Move over to prevent blob squish
G92 E0
G92 E0
G1 F2700 E-5
;LAYER_COUNT:100
;LAYER:0
M107
G0 F6000 X90.472 Y105.249 Z0.2
;TYPE:SKIRT
G1 F2700 E0
G1 F1200 X91.076 Y104.741 E0.02625
G1 X91.496 Y104.455 E0.04315
G1 X91.66 Y104.286 E0.05098
G1 X92.264 Y103.778 E0.07723
G1 X92.917 Y103.333 E0.10352
G1 X93.612 Y102.957 E0.1298
G1 X94.001 Y102.784 E0.14396
G1 X94.809 Y102.451 E0.17302
G1 X95.702 Y102.145 E0.20442
G1 X95.984 Y102.067 E0.21415
G1 X96.125 Y102.035 E0.21896
G1 X96.199 Y101.961 E0.22244
G1 X96.787 Y101.434 E0.2487
G1 X97.426 Y100.969 E0.27499
G1 X98.108 Y100.572 E0.30124
G1 X98.827 Y100.245 E0.32751
G1 X99.575 Y99.992 E0.35377
G1 X100.345 Y99.817 E0.38003
G1 X101.129 Y99.72 E0.40631
G1 X101.691 Y99.7 E0.42501
G1 X112.536 Y99.7 E0.78572
G1 X113.204 Y99.734 E0.80796
G1 X113.289 Y99.723 E0.81082
G1 X113.884 Y99.7 E0.83062
G1 X117.626 Y99.7 E0.95508
G1 X118.38 Y99.738 E0.98019
G1 X118.974 Y99.7 E0.99999
G1 X129.819 Y99.7 E1.36069
G1 X130.608 Y99.74 E1.38697
G1 X131.388 Y99.859 E1.41321
G1 X132.153 Y100.057 E1.43949
G1 X132.893 Y100.331 E1.46574
G1 X133.602 Y100.679 E1.49201
G1 X134.273 Y101.097 E1.5183
G1 X134.805 Y101.509 E1.54068
G1 X134.924 Y101.495 E1.54467
G1 X135.712 Y101.445 E1.57093
G1 X136.501 Y101.474 E1.59719
G1 X137.283 Y101.583 E1.62345
G1 X137.989 Y101.752 E1.6476
G1 X139.29 Y102.129 E1.69265
G1 X140.102 Y102.414 E1.72127
G1 X140.578 Y102.611 E1.7384
G1 X141.625 Y103.14 E1.77742
G1 X142.036 Y103.388 E1.79338
G1 X142.69 Y103.829 E1.81962
G1 X143.119 Y104.176 E1.83797
G1 X143.513 Y104.518 E1.85532
G1 X144.082 Y105.065 E1.88158
G1 X144.393 Y105.416 E1.89717
G1 X144.737 Y105.829 E1.91505
G1 X145.211 Y106.461 E1.94133
G1 X145.626 Y107.15 E1.96808
G1 X145.89 Y107.645 E1.98674
G1 X146.309 Y108.571 E2.02054
G1 X146.444 Y108.93 E2.0333
G1 X146.684 Y109.682 E2.05955
G1 X146.825 Y110.324 E2.08142
G1 X146.927 Y110.904 E2.101
G1 X147.024 Y111.688 E2.12728
G1 X147.045 Y112.255 E2.14615
G1 X147.045 Y112.793 E2.16404
G1 X147.005 Y113.582 E2.19032
G1 X146.932 Y114.114 E2.20818
G1 X146.86 Y114.533 E2.22232
G1 X146.687 Y115.303 E2.24857
G1 X146.549 Y115.748 E2.26406
G1 X146.373 Y116.26 E2.28207
G1 X146.079 Y116.992 E2.30831
G1 X145.823 Y117.499 E2.3272
G1 X145.562 Y117.971 E2.34514
G1 X145.145 Y118.641 E2.37139
G1 X144.729 Y119.188 E2.39424
G1 X144.425 Y119.553 E2.41004
G1 X143.634 Y120.373 E2.44794
G1 X143.31 Y120.663 E2.4624
G1 X143.055 Y120.883 E2.4736
G1 X142.428 Y121.362 E2.49984
G1 X142.06 Y121.6 E2.51442
G1 X141.652 Y121.848 E2.5303
G1 X140.958 Y122.224 E2.55655
G1 X140.493 Y122.427 E2.57343
G1 X140.002 Y122.623 E2.59101
G1 X139.287 Y122.869 E2.61616
G1 X137.983 Y123.248 E2.66133
G1 X137.737 Y123.306 E2.66973
G1 X137.737 Y127.382 E2.8053
G1 X137.697 Y128.171 E2.83158
G1 X137.578 Y128.952 E2.85785
G1 X137.38 Y129.716 E2.8841
G1 X137.106 Y130.457 E2.91038
G1 X136.758 Y131.166 E2.93665
G1 X136.341 Y131.836 E2.9629
G1 X135.858 Y132.461 E2.98917
G1 X135.452 Y132.898 E3.00901
G1 X135.335 Y133.015 E3.01451
G1 X134.749 Y133.545 E3.04079
G1 X134.113 Y134.012 E3.06704
G1 X133.433 Y134.413 E3.09329
G1 X132.715 Y134.743 E3.11957
G1 X131.968 Y134.998 E3.14583
G1 X131.199 Y135.177 E3.17209
G1 X130.415 Y135.277 E3.19838
G1 X129.82 Y135.3 E3.21818
G1 X118.975 Y135.3 E3.57889
G1 X118.307 Y135.266 E3.60113
G1 X118.222 Y135.277 E3.60398
G1 X117.627 Y135.3 E3.62379
G1 X113.885 Y135.3 E3.74825
G1 X113.131 Y135.262 E3.77336
G1 X112.537 Y135.3 E3.79315
G1 X101.72 Y135.3 E4.15293
G1 X100.931 Y135.26 E4.17921
G1 X100.151 Y135.141 E4.20545
G1 X99.386 Y134.943 E4.23173
G1 X98.646 Y134.669 E4.25798
G1 X97.937 Y134.321 E4.28425
G1 X97.266 Y133.903 E4.31054
G1 X96.642 Y133.42 E4.33678
G1 X96.205 Y133.015 E4.3566
G1 X96.06 Y132.87 E4.36342
G1 X95.53 Y132.284 E4.3897
G1 X95.063 Y131.648 E4.41594
G1 X94.662 Y130.968 E4.4422
G1 X94.332 Y130.25 E4.46848
G1 X94.077 Y129.503 E4.49474
G1 X93.898 Y128.734 E4.521
G1 X93.798 Y127.95 E4.54728
G1 X93.775 Y127.367 E4.56669
G1 X93.772 Y125.429 E4.63115
G1 X93.772 Y122.049 E4.74357
G1 X93.593 Y121.962 E4.75019
G1 X93.169 Y121.721 E4.76641
G1 X92.503 Y121.297 E4.79267
G1 X92.052 Y120.95 E4.81159
G1 X91.838 Y120.783 E4.82062
G1 X91.178 Y120.351 E4.84686
G1 X90.564 Y119.853 E4.87315
G1 X90.004 Y119.297 E4.8994
G1 X89.504 Y118.686 E4.92566
G1 X89.067 Y118.028 E4.95193
G1 X88.699 Y117.329 E4.9782
G1 X88.404 Y116.597 E5.00445
G1 X88.184 Y115.838 E5.03074
G1 X88.043 Y115.061 E5.057
G1 X87.977 Y114.051 E5.09067
G1 X87.977 Y112.501 E5.14222
G1 X87.993 Y110.876 E5.19627
G1 X88.041 Y110.088 E5.22253
G1 X88.168 Y109.309 E5.24878
G1 X88.374 Y108.546 E5.27507
G1 X88.655 Y107.808 E5.30133
G1 X89.01 Y107.103 E5.32758
G1 X89.434 Y106.436 E5.35387
G1 X89.923 Y105.817 E5.38011
G1 X90.472 Y105.249 E5.40638
G0 F6000 X90.863 Y105.434
G1 F1200 X91.463 Y104.952 E5.43198
G1 X91.751 Y104.766 E5.44338
G1 X91.947 Y104.565 E5.45272
G1 X92.538 Y104.072 E5.47832
G1 X93.177 Y103.644 E5.5039
G1 X94.153 Y103.154 E5.54022
G1 X94.961 Y102.821 E5.56929
G1 X95.808 Y102.531 E5.59907
G1 X96.09 Y102.453 E5.6088
G1 X96.363 Y102.362 E5.61837
G1 X96.481 Y102.245 E5.6239
G1 X97.054 Y101.733 E5.64945
G1 X97.678 Y101.283 E5.67504
G1 X98.345 Y100.9 E5.70062
G1 X99.048 Y100.588 E5.72621
G1 X99.78 Y100.351 E5.7518
G1 X100.532 Y100.191 E5.77737
G1 X101.297 Y100.11 E5.80295
G1 X101.691 Y100.1 E5.81606
G1 X112.536 Y100.1 E6.17677
G1 X113.236 Y100.136 E6.20008
G1 X113.459 Y100.112 E6.20754
G1 X113.884 Y100.1 E6.22168
G1 X117.626 Y100.1 E6.34614
G1 X118.313 Y100.136 E6.36902
G1 X118.468 Y100.117 E6.37422
G1 X118.974 Y100.1 E6.39106
G1 X129.819 Y100.1 E6.75176
G1 X130.587 Y100.14 E6.77734
G1 X131.347 Y100.259 E6.80293
G1 X132.09 Y100.457 E6.8285
G1 X132.809 Y100.731 E6.85409
G1 X133.495 Y101.078 E6.87966
G1 X134.142 Y101.494 E6.90525
G1 X134.687 Y101.931 E6.92848
G1 X134.97 Y101.893 E6.93798
G1 X135.737 Y101.844 E6.96354
G1 X136.506 Y101.876 E6.98914
G1 X137.267 Y101.987 E7.01472
G1 X137.878 Y102.136 E7.03564
G1 X139.179 Y102.513 E7.08069
G1 X139.949 Y102.783 E7.10783
G1 X140.425 Y102.98 E7.12496
G1 X141.418 Y103.482 E7.16197
G1 X141.829 Y103.73 E7.17793
G1 X142.466 Y104.161 E7.20351
G1 X142.857 Y104.478 E7.22026
G1 X143.251 Y104.82 E7.23761
G1 X143.805 Y105.353 E7.26318
G1 X144.086 Y105.672 E7.27732
G1 X144.43 Y106.085 E7.29519
G1 X144.891 Y106.701 E7.32079
G1 X145.273 Y107.339 E7.34552
G1 X145.537 Y107.834 E7.36418
G1 X145.934 Y108.711 E7.3962
G1 X146.069 Y109.07 E7.40895
G1 X146.302 Y109.803 E7.43453
G1 X146.431 Y110.393 E7.45462
G1 X146.533 Y110.973 E7.47421
G1 X146.627 Y111.737 E7.49981
G1 X146.645 Y112.255 E7.51705
G1 X146.645 Y112.793 E7.53494
G1 X146.605 Y113.561 E7.56052
G1 X146.538 Y114.046 E7.57681
G1 X146.466 Y114.465 E7.59095
G1 X146.297 Y115.215 E7.61652
G1 X146.171 Y115.618 E7.63056
G1 X145.995 Y116.13 E7.64857
G1 X145.708 Y116.843 E7.67413
G1 X145.473 Y117.305 E7.69137
G1 X145.212 Y117.777 E7.70931
G1 X144.805 Y118.43 E7.7349
G1 X144.422 Y118.932 E7.7559
G1 X144.118 Y119.297 E7.7717
G1 X143.367 Y120.075 E7.80767
G1 X142.896 Y120.494 E7.82864
G1 X142.797 Y120.578 E7.83295
G1 X142.185 Y121.044 E7.85854
G1 X141.853 Y121.258 E7.87168
G1 X141.445 Y121.506 E7.88756
G1 X140.768 Y121.871 E7.91314
G1 X140.344 Y122.056 E7.92852
G1 X139.853 Y122.252 E7.94611
G1 X139.175 Y122.485 E7.96995
G1 X137.871 Y122.864 E8.01512
G1 X137.337 Y122.99 E8.03337
G1 X137.337 Y127.382 E8.17944
G1 X137.297 Y128.151 E8.20506
G1 X137.178 Y128.91 E8.23061
G1 X136.98 Y129.654 E8.25622
G1 X136.706 Y130.373 E8.28181
G1 X136.359 Y131.059 E8.30738
G1 X135.943 Y131.706 E8.33296
G1 X135.462 Y132.306 E8.35854
G1 X135.17 Y132.616 E8.3727
G1 X135.053 Y132.733 E8.37821
G1 X134.481 Y133.247 E8.40378
G1 X133.859 Y133.7 E8.42938
G1 X133.194 Y134.086 E8.45495
G1 X132.492 Y134.401 E8.48054
G1 X131.761 Y134.641 E8.50613
G1 X131.01 Y134.804 E8.53169
G1 X130.245 Y134.888 E8.55729
G1 X129.82 Y134.9 E8.57143
G1 X118.975 Y134.9 E8.93214
G1 X118.275 Y134.864 E8.95545
G1 X118.052 Y134.888 E8.96291
G1 X117.627 Y134.9 E8.97705
G1 X113.885 Y134.9 E9.10151
G1 X113.198 Y134.864 E9.12439
G1 X113.043 Y134.883 E9.12958
G1 X112.537 Y134.9 E9.14642
G1 X101.72 Y134.9 E9.5062
G1 X100.952 Y134.86 E9.53178
G1 X100.192 Y134.741 E9.55736
G1 X99.449 Y134.543 E9.58294
G1 X98.73 Y134.269 E9.60853
G1 X98.044 Y133.922 E9.6341
G1 X97.397 Y133.506 E9.65968
G1 X96.797 Y133.025 E9.68526
G1 X96.487 Y132.733 E9.69942
G1 X96.342 Y132.588 E9.70624
G1 X95.828 Y132.016 E9.73182
G1 X95.375 Y131.394 E9.75741
G1 X94.989 Y130.729 E9.78299
G1 X94.674 Y130.027 E9.80858
G1 X94.434 Y129.296 E9.83417
G1 X94.271 Y128.545 E9.85973
G1 X94.187 Y127.78 E9.88533
G1 X94.175 Y127.366 E9.8991
G1 X94.172 Y125.428 E9.96356
G1 X94.172 Y121.799 E10.08426
G1 X93.79 Y121.614 E10.09838
G1 X93.366 Y121.373 E10.1146
G1 X92.718 Y120.959 E10.14017
G1 X92.307 Y120.642 E10.15744
G1 X92.11 Y120.479 E10.16594
G1 X92.04 Y120.438 E10.16864
G1 X91.397 Y120.016 E10.19422
G1 X90.802 Y119.529 E10.21979
G1 X90.26 Y118.983 E10.24538
G1 X89.778 Y118.384 E10.27096
G1 X89.361 Y117.738 E10.29653
G1 X89.013 Y117.052 E10.32211
G1 X88.738 Y116.333 E10.34772
G1 X88.539 Y115.59 E10.3733
G1 X88.418 Y114.831 E10.39886
G1 X88.377 Y114.051 E10.42484
G1 X88.377 Y112.505 E10.47626
G1 X88.393 Y110.88 E10.53031
G1 X88.441 Y110.112 E10.55591
G1 X88.568 Y109.354 E10.58147
G1 X88.773 Y108.613 E10.60704
G1 X89.054 Y107.896 E10.63265
G1 X89.407 Y107.213 E10.65823
G1 X89.83 Y106.571 E10.6838
G1 X90.317 Y105.976 E10.70937
G1 X90.863 Y105.434 E10.73496
G0 F6000 X91.253 Y105.624
G1 F1200 X91.848 Y105.17 E10.75985
G1 X92.007 Y105.077 E10.76598
G1 X92.234 Y104.845 E10.77677
G1 X92.81 Y104.368 E10.80165
G1 X93.435 Y103.956 E10.82654
G1 X94.306 Y103.524 E10.85888
G1 X95.114 Y103.191 E10.88795
G1 X95.915 Y102.916 E10.91612
G1 X96.197 Y102.838 E10.92585
G1 X96.547 Y102.758 E10.93779
G1 X96.762 Y102.529 E10.94824
G1 X97.321 Y102.032 E10.97312
G1 X97.929 Y101.597 E10.99798
G1 X98.581 Y101.229 E11.02288
G1 X99.268 Y100.933 E11.04776
G1 X99.983 Y100.712 E11.07265
G1 X100.717 Y100.568 E11.09753
G1 X101.691 Y100.5 E11.13001
G1 X112.536 Y100.5 E11.49071
G1 X113.296 Y100.542 E11.51603
G1 X113.884 Y100.5 E11.53563
G1 X117.626 Y100.5 E11.66009
G1 X118.312 Y100.537 E11.68294
G1 X118.974 Y100.5 E11.705
G1 X129.819 Y100.5 E12.0657
G1 X130.566 Y100.54 E12.09058
G1 X131.304 Y100.659 E12.11545
G1 X132.026 Y100.857 E12.14035
G1 X132.722 Y101.13 E12.16521
G1 X133.385 Y101.477 E12.1901
G1 X134.008 Y101.892 E12.215
G1 X134.548 Y102.359 E12.23874
G1 X134.808 Y102.314 E12.24752
G1 X135.016 Y102.29 E12.25448
G1 X135.762 Y102.244 E12.27934
G1 X136.51 Y102.278 E12.30425
G1 X137.249 Y102.392 E12.32912
G1 X137.766 Y102.521 E12.34684
G1 X139.067 Y102.898 E12.39189
G1 X139.796 Y103.153 E12.41758
G1 X140.272 Y103.35 E12.43471
G1 X141.211 Y103.825 E12.46971
G1 X141.622 Y104.073 E12.48568
G1 X142.241 Y104.493 E12.51056
G1 X142.595 Y104.78 E12.52572
G1 X142.989 Y105.122 E12.54307
G1 X143.527 Y105.642 E12.56796
G1 X143.779 Y105.928 E12.58063
G1 X144.123 Y106.341 E12.59851
G1 X144.57 Y106.941 E12.6234
G1 X144.92 Y107.527 E12.6461
G1 X145.184 Y108.022 E12.66476
G1 X145.56 Y108.852 E12.69506
G1 X145.695 Y109.211 E12.70782
G1 X145.921 Y109.924 E12.7327
G1 X146.037 Y110.463 E12.75104
G1 X146.139 Y111.043 E12.77062
G1 X146.229 Y111.785 E12.79548
G1 X146.245 Y112.255 E12.81112
G1 X146.245 Y112.793 E12.82902
G1 X146.205 Y113.54 E12.8539
G1 X146.144 Y113.978 E12.86861
G1 X146.072 Y114.397 E12.88275
G1 X145.906 Y115.127 E12.90765
G1 X145.793 Y115.488 E12.92023
G1 X145.617 Y116 E12.93824
G1 X145.336 Y116.693 E12.96311
G1 X145.123 Y117.111 E12.97871
G1 X144.862 Y117.583 E12.99665
G1 X144.465 Y118.218 E13.02156
G1 X144.115 Y118.676 E13.04073
G1 X143.811 Y119.041 E13.05653
G1 X143.101 Y119.777 E13.09054
G1 X142.777 Y120.067 E13.10501
G1 X142.538 Y120.273 E13.1155
G1 X141.645 Y120.917 E13.15212
G1 X141.237 Y121.165 E13.168
G1 X140.578 Y121.518 E13.19286
G1 X140.196 Y121.684 E13.20672
G1 X139.705 Y121.88 E13.2243
G1 X139.064 Y122.101 E13.24685
G1 X137.76 Y122.48 E13.29202
G1 X137.031 Y122.65 E13.31692
G1 X136.937 Y122.662 E13.32007
G1 X136.937 Y127.382 E13.47706
G1 X136.897 Y128.129 E13.50194
G1 X136.778 Y128.868 E13.52683
G1 X136.58 Y129.589 E13.5517
G1 X136.307 Y130.286 E13.5766
G1 X135.961 Y130.949 E13.60147
G1 X135.546 Y131.571 E13.62634
G1 X134.887 Y132.333 E13.65985
G1 X134.77 Y132.45 E13.66535
G1 X134.213 Y132.95 E13.69025
G1 X133.607 Y133.387 E13.7151
G1 X132.957 Y133.758 E13.73999
G1 X132.271 Y134.057 E13.76488
G1 X131.557 Y134.281 E13.78977
G1 X130.824 Y134.428 E13.81463
G1 X129.82 Y134.5 E13.84811
G1 X118.975 Y134.5 E14.20882
G1 X118.215 Y134.458 E14.23413
G1 X117.627 Y134.5 E14.25374
G1 X113.885 Y134.5 E14.3782
G1 X113.199 Y134.463 E14.40105
G1 X112.537 Y134.5 E14.4231
G1 X101.72 Y134.5 E14.78288
G1 X100.973 Y134.46 E14.80776
G1 X100.235 Y134.341 E14.83262
G1 X99.513 Y134.143 E14.85752
G1 X98.817 Y133.87 E14.88239
G1 X98.154 Y133.523 E14.90728
G1 X97.531 Y133.108 E14.93218
G1 X96.77 Y132.45 E14.96564
G1 X96.625 Y132.305 E14.97246
G1 X96.125 Y131.748 E14.99735
G1 X95.688 Y131.142 E15.0222
G1 X95.317 Y130.492 E15.04709
G1 X95.018 Y129.806 E15.07198
G1 X94.794 Y129.092 E15.09687
G1 X94.647 Y128.359 E15.12174
G1 X94.575 Y127.366 E15.15485
G1 X94.572 Y125.428 E15.21931
G1 X94.572 Y121.55 E15.34829
G1 X93.988 Y121.267 E15.36988
G1 X93.564 Y121.026 E15.3861
G1 X92.934 Y120.622 E15.41099
G1 X92.561 Y120.334 E15.42666
G1 X92.336 Y120.148 E15.43637
G1 X92.242 Y120.093 E15.44
G1 X91.618 Y119.681 E15.46487
G1 X91.041 Y119.205 E15.48974
G1 X90.518 Y118.67 E15.51463
G1 X90.055 Y118.083 E15.53949
G1 X89.657 Y117.449 E15.56439
G1 X89.329 Y116.777 E15.58926
G1 X89.075 Y116.073 E15.61416
G1 X88.898 Y115.346 E15.63904
G1 X88.799 Y114.605 E15.66391
G1 X88.777 Y114.051 E15.68235
G1 X88.777 Y112.509 E15.73363
G1 X88.793 Y110.884 E15.78768
G1 X88.841 Y110.138 E15.81255
G1 X88.967 Y109.4 E15.83745
G1 X89.172 Y108.681 E15.86232
G1 X89.452 Y107.987 E15.88721
G1 X89.805 Y107.327 E15.9121
G1 X90.226 Y106.709 E15.93697
G1 X90.711 Y106.139 E15.96186
G1 X91.253 Y105.624 E15.98673
G0 F6000 X91.104 Y106.308
G1 F1200 X91.643 Y105.821 E16.01089
G1 X92.232 Y105.396 E16.03505
G1 X92.282 Y105.368 E16.03696
G1 X92.52 Y105.125 E16.04827
G1 X93.082 Y104.665 E16.07242
G1 X93.692 Y104.27 E16.0966
G1 X94.458 Y103.894 E16.12498
G1 X95.266 Y103.561 E16.15404
G1 X96.022 Y103.302 E16.18062
G1 X96.304 Y103.224 E16.19035
G1 X96.758 Y103.12 E16.20585
G1 X96.926 Y102.93 E16.21428
G1 X97.044 Y102.813 E16.21981
G1 X97.587 Y102.331 E16.24396
G1 X98.18 Y101.911 E16.26813
G1 X98.815 Y101.559 E16.29227
G1 X99.486 Y101.279 E16.31646
G1 X100.183 Y101.075 E16.34061
G1 X100.898 Y100.948 E16.36476
G1 X101.691 Y100.9 E16.39119
G1 X112.536 Y100.9 E16.75189
G1 X113.25 Y100.939 E16.77568
G1 X113.884 Y100.9 E16.7968
G1 X117.626 Y100.9 E16.92126
G1 X118.351 Y100.94 E16.94541
G1 X118.384 Y100.945 E16.94652
G1 X118.974 Y100.9 E16.9662
G1 X129.819 Y100.9 E17.32691
G1 X130.544 Y100.94 E17.35106
G1 X131.261 Y101.059 E17.37524
G1 X131.96 Y101.257 E17.3994
G1 X132.633 Y101.53 E17.42355
G1 X133.272 Y101.875 E17.44771
G1 X133.869 Y102.289 E17.47187
G1 X134.429 Y102.783 E17.49671
G1 X134.853 Y102.712 E17.51101
G1 X135.061 Y102.688 E17.51797
G1 X135.787 Y102.644 E17.54216
G1 X136.512 Y102.681 E17.56631
G1 X137.229 Y102.797 E17.59046
G1 X137.655 Y102.905 E17.60508
G1 X138.956 Y103.282 E17.65013
G1 X139.643 Y103.523 E17.67435
G1 X140.119 Y103.72 E17.69148
